;START_OF_HEADER
;HEADER_VERSION:0.1
;FLAVOR:Griffin
;GENERATOR.NAME:Cura_SteamEngine
;GENERATOR.VERSION:5.6.0
;GENERATOR.BUILD_DATE:2023-11-28
;TARGET_MACHINE.NAME:Ultimaker S5
;EXTRUDER_TRAIN.0.INITIAL_TEMPERATURE:205
;EXTRUDER_TRAIN.0.MATERIAL.VOLUME_USED:9135
;EXTRUDER_TRAIN.0.MATERIAL.GUID:44a029e6-e31b-4c9e-a12f-9282e29a92ff
;EXTRUDER_TRAIN.0.NOZZLE.DIAMETER:0.4
;EXTRUDER_TRAIN.0.NOZZLE.NAME:AA 0.4
;BUILD_PLATE.INITIAL_TEMPERATURE:60
;BUILD_VOLUME.TEMPERATURE:28
;PRINT.TIME:1889
;PRINT.GROUPS:1
;PRINT.SIZE.MIN.X:140.17
;PRINT.SIZE.MIN.Y:95.17
;PRINT.SIZE.MIN.Z:0.2
;PRINT.SIZE.MAX.X:189.83
;PRINT.SIZE.MAX.Y:144.83
;PRINT.SIZE.MAX.Z:10
;SLICE_UUID:5d8465ad-1b15-4d22-8700-6df1ec923964
;END_OF_HEADER
;Generated with Cura_SteamEngine 5.6.0
T0
M82 ;absolute extrusion mode

G92 E0
M190 S60
M109 S205
G280 S1
G0 Z20.001
G1 F2700 E-6.5
;LAYER_COUNT:50
;LAYER:0
M106 S255
M204 S1500
M205 X30 Y30
G1 F600 Z2.2
;MESH:????????????????.stl
G0 F9000 X189.75 Y144.75 Z2.2
;TYPE:WALL-OUTER
G1 F600 Z0.2
G1 F2700 E0
G1 F1800 X189.75 Y95.25 E0.68282
G1 X140.25 Y95.25 E1.36565
G1 X140.25 Y144.75 E2.04847
G1 X189.75 Y144.75 E2.73129
G0 F9000 X189.75 Y143.95
G0 X189.35 Y144.35
;TYPE:WALL-INNER
G1 F2400 X189.35 Y136.35 E2.8266
G1 F2700 X189.35 Y95.65 E3.31147
G1 X140.65 Y95.65 E3.89165
G1 X140.65 Y144.35 E4.47183
G1 X189.35 Y144.35 E5.05201
G0 F9000 X189.03 Y144.03
;TYPE:SKIN
G1 F2700 X189.03 Y95.97 E5.59594
G1 X140.97 Y95.97 E6.13987
G1 X140.97 Y144.03 E6.6838
G1 X189.03 Y144.03 E7.22773
G1 F2700 E0.72773
G0 F9000 X189.33 Y144.03
G0 X189.33 Y96.622
G0 X188.829 Y96.622
G1 F2700 E7.22773
G1 X188.376 Y96.17 E7.23497
G0 F9000 X187.811 Y96.17
G1 F2700 X188.829 Y97.188 E7.25126
G0 F9000 X188.829 Y97.753
G1 F2700 X187.245 Y96.17 E7.27661
G0 F9000 X186.679 Y96.17
G1 F2700 X188.829 Y98.319 E7.31101
G0 F9000 X188.829 Y98.885
G1 F2700 X186.114 Y96.17 E7.35447
G0 F9000 X185.548 Y96.17
G1 F2700 X188.829 Y99.451 E7.40698
G0 F9000 X188.829 Y100.016
G1 F2700 X184.982 Y96.17 E7.46855
G0 F9000 X184.416 Y96.17
G1 F2700 X188.829 Y100.582 E7.53917
G0 F9000 X188.829 Y101.148
G1 F2700 X183.851 Y96.17 E7.61885
G0 F9000 X183.285 Y96.17
G1 F2700 X188.829 Y101.713 E7.70757
G0 F9000 X188.829 Y102.279
G1 F2700 X182.719 Y96.17 E7.80536
G0 F9000 X182.154 Y96.17
G1 F2700 X188.829 Y102.845 E7.9122
G0 F9000 X188.829 Y103.41
G1 F2700 X181.588 Y96.17 E8.02809
G0 F9000 X181.022 Y96.17
G1 F2700 X188.829 Y103.976 E8.15303
G0 F9000 X188.829 Y104.542
G1 F2700 X180.457 Y96.17 E8.28703
G0 F9000 X179.891 Y96.17
G1 F2700 X188.829 Y105.107 E8.43008
G0 F9000 X188.829 Y105.673
G1 F2700 X179.325 Y96.17 E8.58219
G0 F9000 X178.76 Y96.17
G1 F2700 X188.829 Y106.239 E8.74335
G0 F9000 X188.829 Y106.804
G1 F2700 X178.194 Y96.17 E8.91357
G0 F9000 X177.628 Y96.17
G1 F2700 X188.829 Y107.37 E9.09284
G0 F9000 X188.829 Y107.936
G1 F2700 X177.063 Y96.17 E9.28116
G0 F9000 X176.497 Y96.17
G1 F2700 X188.829 Y108.502 E9.47854
G0 F9000 X188.829 Y109.067
G1 F2700 X175.931 Y96.17 E9.68497
G0 F9000 X175.366 Y96.17
G1 F2700 X188.829 Y109.633 E9.90046
G0 F9000 X188.829 Y110.199
G1 F2700 X174.8 Y96.17 E10.125
G0 F9000 X174.234 Y96.17
G1 F2700 X188.829 Y110.764 E10.35859
G0 F9000 X188.829 Y111.33
G1 F2700 X173.668 Y96.17 E10.60125
G0 F9000 X173.103 Y96.17
G1 F2700 X188.829 Y111.896 E10.85295
G0 F9000 X188.829 Y112.461
G1 F2700 X172.537 Y96.17 E11.11371
G0 F9000 X171.971 Y96.17
G1 F2700 X188.829 Y113.027 E11.38352
G0 F9000 X188.829 Y113.593
G1 F2700 X171.406 Y96.17 E11.66239
G0 F9000 X170.84 Y96.17
G1 F2700 X188.829 Y114.158 E11.9503
G0 F9000 X188.829 Y114.724
G1 F2700 X170.274 Y96.17 E12.24728
G0 F9000 X169.709 Y96.17
G1 F2700 X188.829 Y115.29 E12.55331
G0 F9000 X188.829 Y115.855
G1 F2700 X169.143 Y96.17 E12.86839
G0 F9000 X168.577 Y96.17
G1 F2700 X188.829 Y116.421 E13.19253
G0 F9000 X188.829 Y116.987
G1 F2700 X168.012 Y96.17 E13.52571
G0 F9000 X167.446 Y96.17
G1 F2700 X188.829 Y117.552 E13.86795
G0 F9000 X188.829 Y118.118
G1 F2700 X166.88 Y96.17 E14.21925
G0 F9000 X166.315 Y96.17
G1 F2700 X188.829 Y118.684 E14.5796
G0 F9000 X188.829 Y119.25
G1 F2700 X165.749 Y96.17 E14.94901
G0 F9000 X165.183 Y96.17
G1 F2700 X188.829 Y119.815 E15.32748
G0 F9000 X188.829 Y120.381
G1 F2700 X164.617 Y96.17 E15.715
G0 F9000 X164.052 Y96.17
G1 F2700 X188.829 Y120.947 E16.11157
G0 F9000 X188.829 Y121.512
G1 F2700 X163.486 Y96.17 E16.51719
G0 F9000 X162.92 Y96.17
G1 F2700 X188.829 Y122.078 E16.93187
G0 F9000 X188.829 Y122.644
G1 F2700 X162.355 Y96.17 E17.3556
G0 F9000 X161.789 Y96.17
G1 F2700 X188.829 Y123.209 E17.78839
G0 F9000 X188.829 Y123.775
G1 F2700 X161.223 Y96.17 E18.23023
G0 F9000 X160.658 Y96.17
G1 F2700 X188.829 Y124.341 E18.68113
G0 F9000 X188.829 Y124.906
G1 F2700 X160.092 Y96.17 E19.14107
G0 F9000 X159.526 Y96.17
G1 F2700 X188.829 Y125.472 E19.61008
G0 F9000 X188.829 Y126.038
G1 F2700 X158.961 Y96.17 E20.08813
G0 F9000 X158.395 Y96.17
G1 F2700 X188.829 Y126.603 E20.57524
G0 F9000 X188.829 Y127.169
G1 F2700 X157.829 Y96.17 E21.07141
G0 F9000 X157.264 Y96.17
G1 F2700 X188.829 Y127.735 E21.57662
G0 F9000 X188.829 Y128.3
G1 F2700 X156.698 Y96.17 E22.09089
G0 F9000 X156.132 Y96.17
G1 F2700 X188.829 Y128.866 E22.61422
G0 F9000 X188.829 Y129.432
G1 F2700 X155.567 Y96.17 E23.1466
G0 F9000 X155.001 Y96.17
G1 F2700 X188.829 Y129.998 E23.68804
G0 F9000 X188.829 Y130.563
G1 F2700 X154.435 Y96.17 E24.23853
G0 F9000 X153.869 Y96.17
G1 F2700 X188.829 Y131.129 E24.79807
G0 F9000 X188.829 Y131.695
G1 F2700 X153.304 Y96.17 E25.36667
G0 F9000 X152.738 Y96.17
G1 F2700 X188.829 Y132.26 E25.94433
G0 F9000 X188.829 Y132.826
G1 F2700 X152.172 Y96.17 E26.53104
G0 F9000 X151.607 Y96.17
G1 F2700 X188.829 Y133.392 E27.1268
G0 F9000 X188.829 Y133.957
G1 F2700 X151.041 Y96.17 E27.73161
G0 F9000 X150.475 Y96.17
G1 F2700 X188.829 Y134.523 E28.34548
G0 F9000 X188.829 Y135.089
G1 F2700 X149.91 Y96.17 E28.9684
G0 F9000 X149.344 Y96.17
G1 F2700 X188.829 Y135.654 E29.60038
G0 F9000 X188.829 Y136.22
G1 F2700 X148.778 Y96.17 E30.24141
G0 F9000 X148.213 Y96.17
G1 F2700 X188.829 Y136.786 E30.8915
G0 F9000 X188.829 Y137.351
G1 F2700 X147.647 Y96.17 E31.55063
G0 F9000 X147.081 Y96.17
G1 F2700 X188.829 Y137.917 E32.21883
G0 F9000 X188.829 Y138.483
G1 F2700 X146.516 Y96.17 E32.89607
G0 F9000 X145.95 Y96.17
G1 F2700 X188.829 Y139.049 E33.58238
G0 F9000 X188.829 Y139.614
G1 F2700 X145.384 Y96.17 E34.27773
G0 F9000 X144.819 Y96.17
G1 F2700 X188.829 Y140.18 E34.98214
G0 F9000 X188.829 Y140.746
G1 F2700 X144.253 Y96.17 E35.69561
G0 F9000 X143.687 Y96.17
G1 F2700 X188.829 Y141.311 E36.41813
G0 F9000 X188.829 Y141.877
G1 F2700 X143.121 Y96.17 E37.1497
G0 F9000 X142.556 Y96.17
G1 F2700 X188.829 Y142.443 E37.89033
G0 F9000 X188.829 Y143.008
G1 F2700 X141.99 Y96.17 E38.64001
G0 F9000 X141.424 Y96.17
G1 F2700 X188.829 Y143.574 E39.39875
G0 F9000 X188.518 Y143.829
G1 F2700 X141.168 Y96.479 E40.15661
G0 F9000 X141.168 Y97.045
G1 F2700 X187.953 Y143.829 E40.90543
G0 F9000 X187.387 Y143.829
G1 F2700 X141.168 Y97.611 E41.64519
G0 F9000 X141.168 Y98.176
G1 F2700 X186.821 Y143.829 E42.37589
G0 F9000 X186.256 Y143.829
G1 F2700 X141.168 Y98.742 E43.09754
G0 F9000 X141.168 Y99.308
G1 F2700 X185.69 Y143.829 E43.81014
G0 F9000 X185.124 Y143.829
G1 F2700 X141.168 Y99.873 E44.51368
G0 F9000 X141.168 Y100.439
G1 F2700 X184.559 Y143.829 E45.20817
G0 F9000 X183.993 Y143.829
G1 F2700 X141.168 Y101.005 E45.89361
G0 F9000 X141.168 Y101.57
G1 F2700 X183.427 Y143.829 E46.56999
G0 F9000 X182.862 Y143.829
G1 F2700 X141.168 Y102.136 E47.23732
G0 F9000 X141.168 Y102.702
G1 F2700 X182.296 Y143.829 E47.89559
G0 F9000 X181.73 Y143.829
G1 F2700 X141.168 Y103.267 E48.54481
G0 F9000 X141.168 Y103.833
G1 F2700 X181.164 Y143.829 E49.18497
G0 F9000 X180.599 Y143.829
G1 F2700 X141.168 Y104.399 E49.81608
G0 F9000 X141.168 Y104.965
G1 F2700 X180.033 Y143.829 E50.43813
G0 F9000 X179.467 Y143.829
G1 F2700 X141.168 Y105.53 E51.05113
G0 F9000 X141.168 Y106.096
G1 F2700 X178.902 Y143.829 E51.65508
G0 F9000 X178.336 Y143.829
G1 F2700 X141.168 Y106.662 E52.24997
G0 F9000 X141.168 Y107.227
G1 F2700 X177.77 Y143.829 E52.83581
G0 F9000 X177.205 Y143.829
G1 F2700 X141.168 Y107.793 E53.41259
G0 F9000 X141.168 Y108.359
G1 F2700 X176.639 Y143.829 E53.98032
G0 F9000 X176.073 Y143.829
G1 F2700 X141.168 Y108.924 E54.539
G0 F9000 X141.168 Y109.49
G1 F2700 X175.508 Y143.829 E55.08862
G0 F9000 X174.942 Y143.829
G1 F2700 X141.168 Y110.056 E55.62919
G0 F9000 X141.168 Y110.621
G1 F2700 X174.376 Y143.829 E56.1607
G0 F9000 X173.811 Y143.829
G1 F2700 X141.168 Y111.187 E56.68317
G0 F9000 X141.168 Y111.753
G1 F2700 X173.245 Y143.829 E57.19657
G0 F9000 X172.679 Y143.829
G1 F2700 X141.168 Y112.318 E57.70092
G0 F9000 X141.168 Y112.884
G1 F2700 X172.114 Y143.829 E58.19622
G0 F9000 X171.548 Y143.829
G1 F2700 X141.168 Y113.45 E58.68247
G0 F9000 X141.168 Y114.016
G1 F2700 X170.982 Y143.829 E59.15965
G0 F9000 X170.416 Y143.829
G1 F2700 X141.168 Y114.581 E59.62778
G0 F9000 X141.168 Y115.147
G1 F2700 X169.851 Y143.829 E60.08687
G0 F9000 X169.285 Y143.829
G1 F2700 X141.168 Y115.713 E60.53689
G0 F9000 X141.168 Y116.278
G1 F2700 X168.719 Y143.829 E60.97786
G0 F9000 X168.154 Y143.829
G1 F2700 X141.168 Y116.844 E61.40978
G0 F9000 X141.168 Y117.41
G1 F2700 X167.588 Y143.829 E61.83264
G0 F9000 X167.022 Y143.829
G1 F2700 X141.168 Y117.975 E62.24645
G0 F9000 X141.168 Y118.541
G1 F2700 X166.457 Y143.829 E62.65121
G0 F9000 X165.891 Y143.829
G1 F2700 X141.168 Y119.107 E63.04691
G0 F9000 X141.168 Y119.672
G1 F2700 X165.325 Y143.829 E63.43355
G0 F9000 X164.759 Y143.829
G1 F2700 X141.169 Y120.239 E63.81113
G0 F9000 X141.169 Y120.804
G1 F2700 X164.193 Y143.829 E64.17965
G0 F9000 X163.628 Y143.829
G1 F2700 X141.169 Y121.37 E64.53912
G0 F9000 X141.169 Y121.936
G1 F2700 X163.062 Y143.829 E64.88953
G0 F9000 X162.496 Y143.829
G1 F2700 X141.169 Y122.502 E65.23088
G0 F9000 X141.169 Y123.067
G1 F2700 X161.93 Y143.829 E65.56318
G0 F9000 X161.365 Y143.829
G1 F2700 X141.169 Y123.633 E65.88643
G0 F9000 X141.169 Y124.199
G1 F2700 X160.799 Y143.829 E66.20062
G0 F9000 X160.233 Y143.829
G1 F2700 X141.169 Y124.764 E66.50576
G0 F9000 X141.169 Y125.33
G1 F2700 X159.668 Y143.829 E66.80185
G0 F9000 X159.102 Y143.829
G1 F2700 X141.169 Y125.896 E67.08888
G0 F9000 X141.169 Y126.461
G1 F2700 X158.536 Y143.829 E67.36685
G0 F9000 X157.971 Y143.829
G1 F2700 X141.169 Y127.027 E67.63578
G0 F9000 X141.169 Y127.593
G1 F2700 X157.405 Y143.829 E67.89565
G0 F9000 X156.839 Y143.829
G1 F2700 X141.169 Y128.158 E68.14646
G0 F9000 X141.169 Y128.724
G1 F2700 X156.274 Y143.829 E68.38823
G0 F9000 X155.708 Y143.829
G1 F2700 X141.169 Y129.29 E68.62094
G0 F9000 X141.169 Y129.855
G1 F2700 X155.142 Y143.829 E68.84459
G0 F9000 X154.577 Y143.829
G1 F2700 X141.169 Y130.421 E69.05919
G0 F9000 X141.169 Y130.987
G1 F2700 X154.011 Y143.829 E69.26474
G0 F9000 X153.445 Y143.829
G1 F2700 X141.169 Y131.552 E69.46123
G0 F9000 X141.169 Y132.118
G1 F2700 X152.88 Y143.829 E69.64867
G0 F9000 X152.314 Y143.829
G1 F2700 X141.169 Y132.684 E69.82706
G0 F9000 X141.169 Y133.25
G1 F2700 X151.748 Y143.829 E69.99638
G0 F9000 X151.182 Y143.829
G1 F2700 X141.169 Y133.815 E70.15665
G0 F9000 X141.169 Y134.381
G1 F2700 X150.617 Y143.829 E70.30787
G0 F9000 X150.051 Y143.829
G1 F2700 X141.169 Y134.947 E70.45003
G0 F9000 X141.169 Y135.512
G1 F2700 X149.485 Y143.829 E70.58314
G0 F9000 X148.92 Y143.829
G1 F2700 X141.169 Y136.078 E70.7072
G0 F9000 X141.169 Y136.644
G1 F2700 X148.354 Y143.829 E70.8222
G0 F9000 X147.788 Y143.829
G1 F2700 X141.169 Y137.209 E70.92815
G0 F9000 X141.169 Y137.775
G1 F2700 X147.223 Y143.829 E71.02505
G0 F9000 X146.657 Y143.829
G1 F2700 X141.169 Y138.341 E71.11289
G0 F9000 X141.169 Y138.906
G1 F2700 X146.091 Y143.829 E71.19168
G0 F9000 X145.526 Y143.829
G1 F2700 X141.169 Y139.472 E71.26142
G0 F9000 X141.169 Y140.038
G1 F2700 X144.96 Y143.829 E71.32209
G0 F9000 X144.394 Y143.829
G1 F2700 X141.169 Y140.603 E71.37372
G0 F9000 X141.169 Y141.169
G1 F2700 X143.829 Y143.829 E71.41629
G0 F9000 X143.263 Y143.829
G1 F2700 X141.169 Y141.735 E71.44981
G0 F9000 X141.169 Y142.3
G1 F2700 X141.735 Y142.867 E71.45888
G1 F2526.3 X142.697 Y143.829 E71.47427
G0 F9000 X142.131 Y143.829
G1 F2526.3 X141.169 Y142.866 E71.48968
G0 F9000 X141.169 Y143.432
G1 F2526.3 X141.566 Y143.829 E71.49603
G1 F2700 E64.99603
;MESH:NONMESH
G0 F600 X141.566 Y143.829 Z0.4
G0 F9000 X141.566 Y144.33
G0 X189.48 Y144.48
G0 X189.83 Y144.83
;TIME_ELAPSED:152.963082
;LAYER:1
M205 X50 Y50
;TYPE:WALL-OUTER
;MESH:????????????????.stl
G1 F2700 E71.49603
G1 F1800 X189.83 Y95.17 E72.11879
G1 X140.17 Y95.17 E72.74154
G1 X140.17 Y144.83 E73.3643
G1 X189.83 Y144.83 E73.98705
M204 S3500
G0 F9000 X189.83 Y144.03
G0 X189.43 Y144.43
;TYPE:WALL-INNER
G1 F2100 X189.43 Y137.43 E74.07484
G1 F2400 X189.43 Y129.43 E74.17516
G1 F2700 X189.43 Y120.43 E74.28802
G1 F3000 X189.43 Y110.43 E74.41343
G1 F3300 X189.43 Y99.43 E74.55137
G1 F3600 X189.43 Y95.57 E74.59978
G1 X181.291 Y95.57 E74.70184
G1 F3900 X168.291 Y95.57 E74.86487
G1 F4200 X154.291 Y95.57 E75.04043
G1 F4500 X140.57 Y95.57 E75.2125
G1 X140.57 Y96.849 E75.22854
G1 F4800 X140.57 Y112.849 E75.42918
G1 F5100 X140.57 Y129.849 E75.64237
G1 F5400 X140.57 Y144.43 E75.82522
G1 X143.989 Y144.43 E75.8681
G1 F5700 X162.989 Y144.43 E76.10636
G1 F6000 X189.43 Y144.43 E76.43794
G0 F9000 X189.11 Y144.11
;TYPE:SKIN
G1 F6000 X189.11 Y95.89 E77.0124
G1 X140.89 Y95.89 E77.58687
G1 X140.89 Y144.11 E78.16133
G1 X189.11 Y144.11 E78.73579
G0 F9000 X188.909 Y143.713
G1 F6000 X188.712 Y143.91 E78.73911
G0 F9000 X188.146 Y143.91
G1 F6000 X188.909 Y143.148 E78.75196
G0 F9000 X188.909 Y142.582
G1 F6000 X187.581 Y143.91 E78.77433
G0 F9000 X187.015 Y143.91
G1 F6000 X188.909 Y142.016 E78.80624
G0 F9000 X188.909 Y141.451
G1 F6000 X186.449 Y143.91 E78.84768
G0 F9000 X185.884 Y143.91
G1 F6000 X188.909 Y140.885 E78.89864
G0 F9000 X188.909 Y140.319
G1 F6000 X185.318 Y143.91 E78.95914
G0 F9000 X184.752 Y143.91
G1 F6000 X188.909 Y139.753 E79.02918
G0 F9000 X188.909 Y139.188
G1 F6000 X184.187 Y143.91 E79.10874
G0 F9000 X183.621 Y143.91
G1 F6000 X188.909 Y138.622 E79.19783
G0 F9000 X188.909 Y138.056
G1 F6000 X183.055 Y143.91 E79.29646
G0 F9000 X182.49 Y143.91
G1 F6000 X188.909 Y137.491 E79.40461
G0 F9000 X188.909 Y136.925
G1 F6000 X181.924 Y143.91 E79.52229
G0 F9000 X181.358 Y143.91
G1 F6000 X188.909 Y136.359 E79.64951
G0 F9000 X188.909 Y135.794
G1 F6000 X180.793 Y143.91 E79.78625
G0 F9000 X180.227 Y143.91
G1 F6000 X188.909 Y135.228 E79.93252
G0 F9000 X188.909 Y134.662
G1 F6000 X179.661 Y143.91 E80.08833
G0 F9000 X179.096 Y143.91
G1 F6000 X188.909 Y134.097 E80.25366
G0 F9000 X188.909 Y133.531
G1 F6000 X178.53 Y143.91 E80.42853
G0 F9000 X177.964 Y143.91
G1 F6000 X188.909 Y132.965 E80.61293
G0 F9000 X188.909 Y132.4
G1 F6000 X177.398 Y143.91 E80.80686
G0 F9000 X176.833 Y143.91
G1 F6000 X188.909 Y131.834 E81.01032
G0 F9000 X188.909 Y131.268
G1 F6000 X176.267 Y143.91 E81.22331
G0 F9000 X175.701 Y143.91
G1 F6000 X188.909 Y130.703 E81.44583
G0 F9000 X188.909 Y130.137
G1 F6000 X175.136 Y143.91 E81.67788
G0 F9000 X174.57 Y143.91
G1 F6000 X188.909 Y129.571 E81.91946
G0 F9000 X188.909 Y129.005
G1 F6000 X174.004 Y143.91 E82.17058
G0 F9000 X173.439 Y143.91
G1 F6000 X188.909 Y128.44 E82.43122
G0 F9000 X188.909 Y127.874
G1 F6000 X172.873 Y143.91 E82.70139
G0 F9000 X172.307 Y143.91
G1 F6000 X188.909 Y127.308 E82.98111
G0 F9000 X188.909 Y126.743
G1 F6000 X171.742 Y143.91 E83.27034
G0 F9000 X171.176 Y143.91
G1 F6000 X188.909 Y126.177 E83.5691
G0 F9000 X188.909 Y125.611
G1 F6000 X170.61 Y143.91 E83.8774
G0 F9000 X170.045 Y143.91
G1 F6000 X188.909 Y125.046 E84.19522
G0 F9000 X188.909 Y124.48
G1 F6000 X169.479 Y143.91 E84.52258
G0 F9000 X168.913 Y143.91
G1 F6000 X188.909 Y123.914 E84.85947
G0 F9000 X188.909 Y123.349
G1 F6000 X168.347 Y143.91 E85.2059
G0 F9000 X167.782 Y143.91
G1 F6000 X188.909 Y122.783 E85.56184
G0 F9000 X188.909 Y122.217
G1 F6000 X167.216 Y143.91 E85.92733
G0 F9000 X166.65 Y143.91
G1 F6000 X188.909 Y121.652 E86.30234
G0 F9000 X188.909 Y121.086
G1 F6000 X166.085 Y143.91 E86.68688
G0 F9000 X165.519 Y143.91
G1 F6000 X188.909 Y120.52 E87.08095
G0 F9000 X188.909 Y119.955
G1 F6000 X164.953 Y143.91 E87.48456
G0 F9000 X164.388 Y143.91
G1 F6000 X188.909 Y119.389 E87.89769
G0 F9000 X188.909 Y118.823
G1 F6000 X163.822 Y143.91 E88.32035
G0 F9000 X163.256 Y143.91
G1 F6000 X188.909 Y118.257 E88.75256
G0 F9000 X188.909 Y117.692
G1 F6000 X162.691 Y143.91 E89.19428
G0 F9000 X162.125 Y143.91
G1 F6000 X188.909 Y117.126 E89.64554
G0 F9000 X188.909 Y116.56
G1 F6000 X161.559 Y143.91 E90.10633
G0 F9000 X160.994 Y143.91
G1 F6000 X188.909 Y115.995 E90.57664
G0 F9000 X188.909 Y115.429
G1 F6000 X160.428 Y143.91 E91.05649
G0 F9000 X159.862 Y143.91
G1 F6000 X188.909 Y114.863 E91.54587
G0 F9000 X188.909 Y114.298
G1 F6000 X159.297 Y143.91 E92.04478
G0 F9000 X158.731 Y143.91
G1 F6000 X188.909 Y113.732 E92.55322
G0 F9000 X188.909 Y113.166
G1 F6000 X158.165 Y143.91 E93.07119
G0 F9000 X157.599 Y143.91
G1 F6000 X188.909 Y112.601 E93.5987
G0 F9000 X188.909 Y112.035
G1 F6000 X157.034 Y143.91 E94.13573
G0 F9000 X156.468 Y143.91
G1 F6000 X188.909 Y111.469 E94.68229
G0 F9000 X188.909 Y110.904
G1 F6000 X155.902 Y143.91 E95.23839
G0 F9000 X155.337 Y143.91
G1 F6000 X188.909 Y110.338 E95.80401
G0 F9000 X188.909 Y109.772
G1 F6000 X154.771 Y143.91 E96.37917
G0 F9000 X154.205 Y143.91
G1 F6000 X188.909 Y109.206 E96.96386
G0 F9000 X188.909 Y108.641
G1 F6000 X153.64 Y143.91 E97.55807
G0 F9000 X153.074 Y143.91
G1 F6000 X188.909 Y108.075 E98.16182
G0 F9000 X188.909 Y107.509
G1 F6000 X152.508 Y143.91 E98.77511
G0 F9000 X151.943 Y143.91
G1 F6000 X188.909 Y106.944 E99.39791
G0 F9000 X188.909 Y106.378
G1 F6000 X151.377 Y143.91 E100.03025
G0 F9000 X150.811 Y143.91
G1 F6000 X188.909 Y105.812 E100.67213
G0 F9000 X188.909 Y105.247
G1 F6000 X150.246 Y143.91 E101.32352
G0 F9000 X149.68 Y143.91
G1 F6000 X188.909 Y104.681 E101.98446
G0 F9000 X188.909 Y104.115
G1 F6000 X149.114 Y143.91 E102.65492
G0 F9000 X148.548 Y143.91
G1 F6000 X188.909 Y103.55 E103.33492
G0 F9000 X188.909 Y102.984
G1 F6000 X147.983 Y143.91 E104.02444
G0 F9000 X147.417 Y143.91
G1 F6000 X188.909 Y102.418 E104.7235
G0 F9000 X188.909 Y101.853
G1 F6000 X146.851 Y143.91 E105.43208
G0 F9000 X146.286 Y143.91
G1 F6000 X188.909 Y101.287 E106.1502
G0 F9000 X188.909 Y100.721
G1 F6000 X145.72 Y143.91 E106.87785
G0 F9000 X145.154 Y143.91
G1 F6000 X188.909 Y100.156 E107.61502
G0 F9000 X188.909 Y99.59
G1 F6000 X144.589 Y143.91 E108.36173
G0 F9000 X144.023 Y143.91
G1 F6000 X188.909 Y99.024 E109.11797
G0 F9000 X188.909 Y98.458
G1 F6000 X143.457 Y143.91 E109.88374
G0 F9000 X142.892 Y143.91
G1 F6000 X188.909 Y97.893 E110.65904
G0 F9000 X188.909 Y97.327
G1 F6000 X142.326 Y143.91 E111.44387
G0 F9000 X141.76 Y143.91
G1 F6000 X188.909 Y96.761 E112.23824
G0 F9000 X188.909 Y96.196
G1 F6000 X141.195 Y143.91 E113.04213
G0 F9000 X141.089 Y143.45
G1 F6000 X188.449 Y96.09 E113.84005
G0 F9000 X187.883 Y96.09
G1 F6000 X141.089 Y142.884 E114.62843
G0 F9000 X141.089 Y142.318
G1 F6000 X187.318 Y96.09 E115.40729
G0 F9000 X186.752 Y96.09
G1 F6000 X141.089 Y141.752 E116.17662
G0 F9000 X141.089 Y141.187
G1 F6000 X186.186 Y96.09 E116.93641
G0 F9000 X185.621 Y96.09
G1 F6000 X141.089 Y140.621 E117.68668
G0 F9000 X141.089 Y140.055
G1 F6000 X185.055 Y96.09 E118.42741
G0 F9000 X184.489 Y96.09
G1 F6000 X141.089 Y139.49 E119.15862
G0 F9000 X141.089 Y138.924
G1 F6000 X183.924 Y96.09 E119.88029
G0 F9000 X183.358 Y96.09
G1 F6000 X141.089 Y138.358 E120.59243
G0 F9000 X141.089 Y137.793
G1 F6000 X182.792 Y96.09 E121.29505
G0 F9000 X182.227 Y96.09
G1 F6000 X141.089 Y137.227 E121.98813
G0 F9000 X141.089 Y136.661
G1 F6000 X181.661 Y96.09 E122.67168
G0 F9000 X181.095 Y96.09
G1 F6000 X141.089 Y136.096 E123.3457
G0 F9000 X141.089 Y135.53
G1 F6000 X180.53 Y96.09 E124.0102
G0 F9000 X179.964 Y96.09
G1 F6000 X141.089 Y134.964 E124.66516
G0 F9000 X141.089 Y134.399
G1 F6000 X179.398 Y96.09 E125.31059
G0 F9000 X178.832 Y96.09
G1 F6000 X141.089 Y133.833 E125.94648
G0 F9000 X141.089 Y133.267
G1 F6000 X178.267 Y96.09 E126.57285
G0 F9000 X177.701 Y96.09
G1 F6000 X141.089 Y132.702 E127.18969
G0 F9000 X141.089 Y132.136
G1 F6000 X177.135 Y96.09 E127.79699
G0 F9000 X176.57 Y96.09
G1 F6000 X141.089 Y131.57 E128.39477
G0 F9000 X141.089 Y131.004
G1 F6000 X176.004 Y96.09 E128.98301
G0 F9000 X175.438 Y96.09
G1 F6000 X141.089 Y130.439 E129.56172
G0 F9000 X141.089 Y129.873
G1 F6000 X174.873 Y96.09 E130.13091
G0 F9000 X174.307 Y96.09
G1 F6000 X141.089 Y129.307 E130.69056
G0 F9000 X141.089 Y128.742
G1 F6000 X173.741 Y96.09 E131.24068
G0 F9000 X173.176 Y96.09
G1 F6000 X141.089 Y128.176 E131.78127
G0 F9000 X141.089 Y127.61
G1 F6000 X172.61 Y96.09 E132.31233
G0 F9000 X172.044 Y96.09
G1 F6000 X141.089 Y127.045 E132.83386
G0 F9000 X141.089 Y126.479
G1 F6000 X171.479 Y96.09 E133.34587
G0 F9000 X170.913 Y96.09
G1 F6000 X141.089 Y125.913 E133.84833
G0 F9000 X141.089 Y125.348
G1 F6000 X170.347 Y96.09 E134.34127
G0 F9000 X169.781 Y96.09
G1 F6000 X141.089 Y124.782 E134.82468
G0 F9000 X141.089 Y124.216
G1 F6000 X169.216 Y96.09 E135.29855
G0 F9000 X168.65 Y96.09
G1 F6000 X141.089 Y123.651 E135.7629
G0 F9000 X141.089 Y123.085
G1 F6000 X168.084 Y96.09 E136.21771
G0 F9000 X167.519 Y96.09
G1 F6000 X141.089 Y122.519 E136.663
G0 F9000 X141.089 Y121.953
G1 F6000 X166.953 Y96.09 E137.09875
G0 F9000 X166.387 Y96.09
G1 F6000 X141.089 Y121.388 E137.52497
G0 F9000 X141.089 Y120.822
G1 F6000 X165.822 Y96.09 E137.94166
G0 F9000 X165.256 Y96.09
G1 F6000 X141.089 Y120.256 E138.34882
G0 F9000 X141.089 Y119.691
G1 F6000 X164.69 Y96.09 E138.74645
G0 F9000 X164.125 Y96.09
G1 F6000 X141.089 Y119.125 E139.13455
G0 F9000 X141.089 Y118.559
G1 F6000 X163.559 Y96.09 E139.51312
G0 F9000 X162.993 Y96.09
G1 F6000 X141.089 Y117.994 E139.88216
G0 F9000 X141.089 Y117.428
G1 F6000 X162.428 Y96.09 E140.24167
G0 F9000 X161.862 Y96.09
G1 F6000 X141.089 Y116.862 E140.59164
G0 F9000 X141.089 Y116.297
G1 F6000 X161.296 Y96.09 E140.93209
G0 F9000 X160.731 Y96.09
G1 F6000 X141.089 Y115.731 E141.26301
G0 F9000 X141.089 Y115.165
G1 F6000 X160.165 Y96.09 E141.5844
G0 F9000 X159.599 Y96.09
G1 F6000 X141.089 Y114.6 E141.89625
G0 F9000 X141.089 Y114.034
G1 F6000 X159.033 Y96.09 E142.19858
G0 F9000 X158.468 Y96.09
G1 F6000 X141.089 Y113.468 E142.49137
G0 F9000 X141.089 Y112.903
G1 F6000 X157.902 Y96.09 E142.77464
G0 F9000 X157.336 Y96.09
G1 F6000 X141.089 Y112.337 E143.04836
G0 F9000 X141.089 Y111.771
G1 F6000 X156.771 Y96.09 E143.31257
G0 F9000 X156.205 Y96.09
G1 F6000 X141.089 Y111.205 E143.56723
G0 F9000 X141.089 Y110.64
G1 F6000 X155.639 Y96.09 E143.81237
G0 F9000 X155.074 Y96.09
G1 F6000 X141.089 Y110.074 E144.04798
G0 F9000 X141.089 Y109.508
G1 F6000 X141.655 Y108.942 E144.05752
G1 F5684.2 X154.508 Y96.09 E144.27406
G0 F9000 X153.942 Y96.09
G1 F5684.2 X141.089 Y108.943 E144.49061
G0 F9000 X141.089 Y108.377
G1 F5684.2 X141.29 Y108.176 E144.49399
G1 F5368.4 X153.377 Y96.09 E144.69763
G0 F9000 X152.811 Y96.09
G1 F5368.4 X152.245 Y96.656 E144.70716
G1 F5052.6 X141.089 Y107.811 E144.89511
G0 F9000 X141.089 Y107.246
G1 F5052.6 X152.245 Y96.09 E145.08307
G0 F9000 X151.68 Y96.09
G1 F5052.6 X151.113 Y96.656 E145.09261
G1 F4736.8 X141.089 Y106.68 E145.2615
G0 F9000 X141.089 Y106.114
G1 F4736.8 X151.114 Y96.09 E145.43039
G0 F9000 X150.548 Y96.09
G1 F4736.8 X149.982 Y96.656 E145.43993
G1 F4421.1 X141.089 Y105.549 E145.58975
G0 F9000 X141.089 Y104.983
G1 F4421.1 X149.983 Y96.09 E145.73959
G0 F9000 X149.417 Y96.09
G1 F4421.1 X148.851 Y96.656 E145.74913
G1 F4105.3 X141.089 Y104.417 E145.87989
G0 F9000 X141.089 Y103.852
G1 F4105.3 X148.851 Y96.09 E146.01067
G0 F9000 X148.285 Y96.09
G1 F4105.3 X147.719 Y96.656 E146.0202
G1 F3789.5 X141.089 Y103.286 E146.13191
G0 F9000 X141.089 Y102.72
G1 F3789.5 X147.72 Y96.09 E146.24362
G0 F9000 X147.154 Y96.09
G1 F3789.5 X146.588 Y96.656 E146.25315
G1 F3473.7 X141.089 Y102.155 E146.3458
G0 F9000 X141.089 Y101.589
G1 F3473.7 X146.588 Y96.09 E146.43845
G0 F9000 X146.023 Y96.09
G1 F3473.7 X145.456 Y96.656 E146.44799
G1 F3157.9 X141.089 Y101.023 E146.52157
G0 F9000 X141.089 Y100.457
G1 F3157.9 X145.457 Y96.09 E146.59515
G0 F9000 X144.891 Y96.09
G1 F3157.9 X144.325 Y96.656 E146.60469
G1 F2842.1 X141.089 Y99.892 E146.65921
G0 F9000 X141.089 Y99.326
G1 F2842.1 X144.326 Y96.09 E146.71374
G0 F9000 X143.76 Y96.09
G1 F2842.1 X143.194 Y96.656 E146.72327
G1 F2526.3 X141.089 Y98.76 E146.75873
G0 F9000 X141.089 Y98.195
G1 F2526.3 X143.194 Y96.09 E146.79419
G0 F9000 X142.629 Y96.09
G1 F2526.3 X142.062 Y96.656 E146.80374
G1 F2210.5 X141.089 Y97.629 E146.82013
G0 F9000 X141.089 Y97.063
G1 F2210.5 X142.063 Y96.09 E146.83653
G0 F9000 X141.497 Y96.09
M205 X30 Y30
G1 F2210.5 X141.089 Y96.498 E146.84341
M204 S1500
G0 F9000 X141.17 Y96.498
G1 F2700 E140.34341
;MESH:NONMESH
G0 F600 X141.17 Y96.498 Z0.6
G0 F9000 X189.56 Y144.56
G0 X189.83 Y144.83
;TIME_ELAPSED:227.363466
;LAYER:2
M205 X50 Y50
;TYPE:WALL-OUTER
;MESH:????????????????.stl
G1 F2700 E146.84341
G1 F1800 X189.83 Y95.17 E147.46616
G1 X140.17 Y95.17 E148.08892
G1 X140.17 Y144.83 E148.71167
G1 X189.83 Y144.83 E149.33443
M204 S3500
G0 F9000 X189.83 Y144.03
G0 X189.43 Y144.43
;TYPE:WALL-INNER
G1 F2100 X189.43 Y137.43 E149.42221
G1 F2400 X189.43 Y129.43 E149.52253
G1 F2700 X189.43 Y120.43 E149.6354
G1 F3000 X189.43 Y110.43 E149.7608
G1 F3300 X189.43 Y99.43 E149.89874
G1 F3600 X189.43 Y95.57 E149.94715
G1 X181.291 Y95.57 E150.04922
G1 F3900 X168.291 Y95.57 E150.21224
G1 F4200 X154.291 Y95.57 E150.38781
G1 F4500 X140.57 Y95.57 E150.55987
G1 X140.57 Y96.849 E150.57591
G1 F4800 X140.57 Y112.849 E150.77656
G1 F5100 X140.57 Y129.849 E150.98974
G1 F5400 X140.57 Y144.43 E151.17259
G1 X143.989 Y144.43 E151.21547
G1 F5700 X162.989 Y144.43 E151.45374
G1 F6000 X189.43 Y144.43 E151.78532
G0 F9000 X189.11 Y144.11
;TYPE:SKIN
G1 F6000 X189.11 Y95.89 E152.35978
G1 X140.89 Y95.89 E152.93424
G1 X140.89 Y144.11 E153.5087
G1 X189.11 Y144.11 E154.08316
G1 F2700 E147.58316
G0 F9000 X188.909 Y96.702
G1 F2700 E154.08316
G1 F6000 X188.296 Y96.09 E154.09348
G0 F9000 X187.731 Y96.09
G1 F6000 X188.909 Y97.268 E154.11333
G0 F9000 X188.909 Y97.833
G1 F6000 X187.165 Y96.09 E154.14271
G0 F9000 X186.599 Y96.09
G1 F6000 X188.909 Y98.399 E154.18162
G0 F9000 X188.909 Y98.965
G1 F6000 X186.034 Y96.09 E154.23005
G0 F9000 X185.468 Y96.09
G1 F6000 X188.909 Y99.53 E154.28802
G0 F9000 X188.909 Y100.096
G1 F6000 X184.902 Y96.09 E154.35552
G0 F9000 X184.337 Y96.09
G1 F6000 X188.909 Y100.662 E154.43255
G0 F9000 X188.909 Y101.227
G1 F6000 X183.771 Y96.09 E154.51911
G0 F9000 X183.205 Y96.09
G1 F6000 X188.909 Y101.793 E154.6152
G0 F9000 X188.909 Y102.359
G1 F6000 X182.64 Y96.09 E154.72082
G0 F9000 X182.074 Y96.09
G1 F6000 X188.909 Y102.925 E154.83598
G0 F9000 X188.909 Y103.49
G1 F6000 X181.508 Y96.09 E154.96066
G0 F9000 X180.942 Y96.09
G1 F6000 X188.909 Y104.056 E155.09488
G0 F9000 X188.909 Y104.622
G1 F6000 X180.377 Y96.09 E155.23863
G0 F9000 X179.811 Y96.09
G1 F6000 X188.909 Y105.187 E155.3919
G0 F9000 X188.909 Y105.753
G1 F6000 X179.245 Y96.09 E155.55471
G0 F9000 X178.68 Y96.09
G1 F6000 X188.909 Y106.319 E155.72705
G0 F9000 X188.909 Y106.884
G1 F6000 X178.114 Y96.09 E155.90892
G0 F9000 X177.548 Y96.09
G1 F6000 X188.909 Y107.45 E156.10032
G0 F9000 X188.909 Y108.016
G1 F6000 X176.983 Y96.09 E156.30125
G0 F9000 X176.417 Y96.09
G1 F6000 X188.909 Y108.581 E156.51171
G0 F9000 X188.909 Y109.147
G1 F6000 X175.851 Y96.09 E156.7317
G0 F9000 X175.286 Y96.09
G1 F6000 X188.909 Y109.713 E156.96122
G0 F9000 X188.909 Y110.278
G1 F6000 X174.72 Y96.09 E157.20027
G0 F9000 X174.154 Y96.09
G1 F6000 X188.909 Y110.844 E157.44885
G0 F9000 X188.909 Y111.41
G1 F6000 X173.589 Y96.09 E157.70696
G0 F9000 X173.023 Y96.09
G1 F6000 X188.909 Y111.976 E157.97461
G0 F9000 X188.909 Y112.541
G1 F6000 X172.457 Y96.09 E158.25179
G0 F9000 X171.892 Y96.09
G1 F6000 X188.909 Y113.107 E158.53849
G0 F9000 X188.909 Y113.673
G1 F6000 X171.326 Y96.09 E158.83473
G0 F9000 X170.76 Y96.09
G1 F6000 X188.909 Y114.238 E159.1405
G0 F9000 X188.909 Y114.804
G1 F6000 X170.194 Y96.09 E159.4558
G0 F9000 X169.629 Y96.09
G1 F6000 X188.909 Y115.37 E159.78063
G0 F9000 X188.909 Y115.935
G1 F6000 X169.063 Y96.09 E160.11498
G0 F9000 X168.497 Y96.09
G1 F6000 X188.909 Y116.501 E160.45888
G0 F9000 X188.909 Y117.067
G1 F6000 X167.932 Y96.09 E160.8123
G0 F9000 X167.366 Y96.09
G1 F6000 X188.909 Y117.632 E161.17525
G0 F9000 X188.909 Y118.198
G1 F6000 X166.8 Y96.09 E161.54773
G0 F9000 X166.235 Y96.09
G1 F6000 X188.909 Y118.764 E161.92974
G0 F9000 X188.909 Y119.329
G1 F6000 X165.669 Y96.09 E162.32128
G0 F9000 X165.103 Y96.09
G1 F6000 X188.909 Y119.895 E162.72236
G0 F9000 X188.909 Y120.461
G1 F6000 X164.538 Y96.09 E163.13296
G0 F9000 X163.972 Y96.09
G1 F6000 X188.909 Y121.026 E163.55309
G0 F9000 X188.909 Y121.592
G1 F6000 X163.406 Y96.09 E163.98276
G0 F9000 X162.841 Y96.09
G1 F6000 X188.909 Y122.158 E164.42195
G0 F9000 X188.909 Y122.724
G1 F6000 X162.275 Y96.09 E164.87069
G0 F9000 X161.709 Y96.09
G1 F6000 X188.909 Y123.289 E165.32894
G0 F9000 X188.909 Y123.855
G1 F6000 X161.143 Y96.09 E165.79674
G0 F9000 X160.578 Y96.09
G1 F6000 X188.909 Y124.421 E166.27406
G0 F9000 X188.909 Y124.986
G1 F6000 X160.012 Y96.09 E166.76091
G0 F9000 X159.446 Y96.09
G1 F6000 X188.909 Y125.552 E167.25729
G0 F9000 X188.909 Y126.118
G1 F6000 X158.881 Y96.09 E167.7632
G0 F9000 X158.315 Y96.09
G1 F6000 X188.909 Y126.683 E168.27864
G0 F9000 X188.909 Y127.249
G1 F6000 X157.749 Y96.09 E168.80362
G0 F9000 X157.184 Y96.09
G1 F6000 X188.909 Y127.815 E169.33812
G0 F9000 X188.909 Y128.38
G1 F6000 X156.618 Y96.09 E169.88216
G0 F9000 X156.052 Y96.09
G1 F6000 X188.909 Y128.946 E170.43572
G0 F9000 X188.909 Y129.512
G1 F6000 X155.487 Y96.09 E170.99882
G0 F9000 X154.921 Y96.09
G1 F6000 X188.909 Y130.077 E171.57144
G0 F9000 X188.909 Y130.643
G1 F6000 X154.355 Y96.09 E172.1536
G0 F9000 X153.79 Y96.09
G1 F6000 X188.909 Y131.209 E172.74528
G0 F9000 X188.909 Y131.775
G1 F6000 X153.224 Y96.09 E173.34651
G0 F9000 X152.658 Y96.09
G1 F6000 X188.909 Y132.34 E173.95725
G0 F9000 X188.909 Y132.906
G1 F6000 X152.093 Y96.09 E174.57753
G0 F9000 X151.527 Y96.09
G1 F6000 X188.909 Y133.472 E175.20734
G0 F9000 X188.909 Y134.037
G1 F6000 X150.961 Y96.09 E175.84668
G0 F9000 X150.395 Y96.09
G1 F6000 X188.909 Y134.603 E176.49556
G0 F9000 X188.909 Y135.169
G1 F6000 X149.83 Y96.09 E177.15396
G0 F9000 X149.264 Y96.09
G1 F6000 X188.909 Y135.734 E177.8219
G0 F9000 X188.909 Y136.3
G1 F6000 X148.698 Y96.09 E178.49936
G0 F9000 X148.133 Y96.09
G1 F6000 X188.909 Y136.866 E179.18636
G0 F9000 X188.909 Y137.431
G1 F6000 X147.567 Y96.09 E179.88288
G0 F9000 X147.001 Y96.09
G1 F6000 X188.909 Y137.997 E180.58894
G0 F9000 X188.909 Y138.563
G1 F6000 X146.436 Y96.09 E181.30453
G0 F9000 X145.87 Y96.09
G1 F6000 X188.909 Y139.128 E182.02964
G0 F9000 X188.909 Y139.694
G1 F6000 X145.304 Y96.09 E182.76429
G0 F9000 X144.739 Y96.09
G1 F6000 X188.909 Y140.26 E183.50847
G0 F9000 X188.909 Y140.825
G1 F6000 X144.173 Y96.09 E184.26217
G0 F9000 X143.607 Y96.09
G1 F6000 X188.909 Y141.391 E185.02541
G0 F9000 X188.909 Y141.957
G1 F6000 X143.042 Y96.09 E185.79818
G0 F9000 X142.476 Y96.09
G1 F6000 X188.909 Y142.523 E186.58049
G0 F9000 X188.909 Y143.088
G1 F6000 X141.91 Y96.09 E187.37232
G0 F9000 X141.344 Y96.09
G1 F6000 X188.909 Y143.654 E188.17369
G0 F9000 X188.598 Y143.909
G1 F6000 X141.089 Y96.399 E188.97413
G0 F9000 X141.089 Y96.965
G1 F6000 X188.033 Y143.909 E189.76504
G0 F9000 X187.467 Y143.909
G1 F6000 X141.089 Y97.531 E190.54642
G0 F9000 X141.089 Y98.096
G1 F6000 X186.901 Y143.909 E191.31827
G0 F9000 X186.336 Y143.909
G1 F6000 X141.089 Y98.662 E192.08059
G0 F9000 X141.089 Y99.228
G1 F6000 X185.77 Y143.909 E192.83338
G0 F9000 X185.204 Y143.909
G1 F6000 X141.089 Y99.793 E193.57664
G0 F9000 X141.089 Y100.359
G1 F6000 X184.639 Y143.909 E194.31037
G0 F9000 X184.073 Y143.909
G1 F6000 X141.089 Y100.925 E195.03456
G0 F9000 X141.089 Y101.491
G1 F6000 X183.507 Y143.909 E195.74922
G0 F9000 X182.941 Y143.909
G1 F6000 X141.089 Y102.056 E196.45435
G0 F9000 X141.089 Y102.622
G1 F6000 X182.376 Y143.909 E197.14996
G0 F9000 X181.81 Y143.909
G1 F6000 X141.089 Y103.188 E197.83603
G0 F9000 X141.089 Y103.753
G1 F6000 X181.244 Y143.909 E198.51257
G0 F9000 X180.679 Y143.909
G1 F6000 X141.089 Y104.319 E199.17958
G0 F9000 X141.089 Y104.885
G1 F6000 X180.113 Y143.909 E199.83706
G0 F9000 X179.547 Y143.909
G1 F6000 X141.089 Y105.45 E200.48501
G0 F9000 X141.089 Y106.016
G1 F6000 X178.982 Y143.909 E201.12343
G0 F9000 X178.416 Y143.909
G1 F6000 X141.089 Y106.582 E201.75232
G0 F9000 X141.089 Y107.147
G1 F6000 X177.85 Y143.909 E202.37168
G0 F9000 X177.285 Y143.909
G1 F6000 X141.089 Y107.713 E202.98151
G0 F9000 X141.089 Y108.279
G1 F6000 X176.719 Y143.909 E203.5818
G0 F9000 X176.153 Y143.909
G1 F6000 X141.089 Y108.844 E204.17257
G0 F9000 X141.089 Y109.41
G1 F6000 X175.588 Y143.909 E204.75381
G0 F9000 X175.022 Y143.909
G1 F6000 X141.089 Y109.976 E205.32551
G0 F9000 X141.089 Y110.542
G1 F6000 X174.456 Y143.909 E205.88768
G0 F9000 X173.89 Y143.909
G1 F6000 X141.089 Y111.107 E206.44032
G0 F9000 X141.089 Y111.673
G1 F6000 X173.325 Y143.909 E206.98343
G0 F9000 X172.759 Y143.909
G1 F6000 X141.089 Y112.239 E207.51701
G0 F9000 X141.089 Y112.804
G1 F6000 X172.193 Y143.909 E208.04106
G0 F9000 X171.628 Y143.909
G1 F6000 X141.089 Y113.37 E208.55558
G0 F9000 X141.089 Y113.936
G1 F6000 X171.062 Y143.909 E209.06057
G0 F9000 X170.496 Y143.909
G1 F6000 X141.089 Y114.501 E209.55603
G0 F9000 X141.089 Y115.067
G1 F6000 X169.931 Y143.909 E210.04196
G0 F9000 X169.365 Y143.909
G1 F6000 X141.089 Y115.633 E210.51835
G0 F9000 X141.089 Y116.198
G1 F6000 X168.799 Y143.909 E210.98522
G0 F9000 X168.234 Y143.909
G1 F6000 X141.089 Y116.764 E211.44256
G0 F9000 X141.089 Y117.33
G1 F6000 X167.668 Y143.909 E211.89036
G0 F9000 X167.102 Y143.909
G1 F6000 X141.089 Y117.895 E212.32864
G0 F9000 X141.089 Y118.461
G1 F6000 X166.537 Y143.909 E212.75739
G0 F9000 X165.971 Y143.909
G1 F6000 X141.089 Y119.027 E213.1766
G0 F9000 X141.089 Y119.592
G1 F6000 X165.405 Y143.909 E213.58629
G0 F9000 X164.84 Y143.909
G1 F6000 X141.089 Y120.158 E213.98644
G0 F9000 X141.089 Y120.724
G1 F6000 X164.274 Y143.909 E214.37706
G0 F9000 X163.708 Y143.909
G1 F6000 X141.089 Y121.29 E214.75815
G0 F9000 X141.089 Y121.855
G1 F6000 X163.142 Y143.909 E215.12971
G0 F9000 X162.577 Y143.909
G1 F6000 X141.089 Y122.421 E215.49174
G0 F9000 X141.089 Y122.987
G1 F6000 X162.011 Y143.909 E215.84423
G0 F9000 X161.445 Y143.909
G1 F6000 X141.089 Y123.552 E216.1872
G0 F9000 X141.089 Y124.118
G1 F6000 X160.88 Y143.909 E216.52064
G0 F9000 X160.314 Y143.909
G1 F6000 X141.089 Y124.684 E216.84454
G0 F9000 X141.089 Y125.249
G1 F6000 X159.748 Y143.909 E217.15892
G0 F9000 X159.183 Y143.909
G1 F6000 X141.089 Y125.815 E217.46377
G0 F9000 X141.089 Y126.381
G1 F6000 X158.617 Y143.909 E217.75908
G0 F9000 X158.051 Y143.909
G1 F6000 X141.089 Y126.946 E218.04486
G0 F9000 X141.089 Y127.512
G1 F6000 X157.486 Y143.909 E218.32112
G0 F9000 X156.92 Y143.909
G1 F6000 X141.089 Y128.078 E218.58784
G0 F9000 X141.089 Y128.643
G1 F6000 X156.354 Y143.909 E218.84503
G0 F9000 X155.789 Y143.909
G1 F6000 X141.089 Y129.209 E219.0927
G0 F9000 X141.089 Y129.775
G1 F6000 X155.223 Y143.909 E219.33083
G0 F9000 X154.657 Y143.909
G1 F6000 X154.091 Y143.343 E219.34037
G1 F5684.2 X141.089 Y130.34 E219.55943
G0 F9000 X141.089 Y130.906
G1 F5684.2 X154.092 Y143.909 E219.77851
G0 F9000 X153.526 Y143.909
G1 F5684.2 X153.176 Y143.559 E219.7844
G1 F5368.4 X141.089 Y131.472 E219.98805
G0 F9000 X141.089 Y132.038
G1 F5368.4 X141.655 Y132.604 E219.99758
G1 F5052.6 X152.96 Y143.909 E220.18805
G0 F9000 X152.394 Y143.909
G1 F5052.6 X141.089 Y132.603 E220.37852
G0 F9000 X141.089 Y133.169
G1 F5052.6 X141.655 Y133.735 E220.38806
G1 F4736.8 X151.829 Y143.909 E220.55947
G0 F9000 X151.263 Y143.909
G1 F4736.8 X141.089 Y133.735 E220.73088
G0 F9000 X141.089 Y134.3
G1 F4736.8 X141.655 Y134.866 E220.74042
G1 F4421.1 X150.697 Y143.909 E220.89277
G0 F9000 X150.132 Y143.909
G1 F4421.1 X141.089 Y134.866 E221.04512
G0 F9000 X141.089 Y135.432
G1 F4421.1 X141.655 Y135.998 E221.05466
G1 F4105.3 X149.566 Y143.909 E221.18795
G0 F9000 X149 Y143.909
G1 F4105.3 X141.089 Y135.997 E221.32124
G0 F9000 X141.089 Y136.563
G1 F4105.3 X141.656 Y137.13 E221.33079
G1 F3789.5 X148.435 Y143.909 E221.445
G0 F9000 X147.869 Y143.909
G1 F3789.5 X141.089 Y137.129 E221.55923
G0 F9000 X141.089 Y137.694
G1 F3789.5 X141.655 Y138.26 E221.56877
G1 F3473.7 X147.303 Y143.909 E221.66394
G0 F9000 X146.738 Y143.909
G1 F3473.7 X141.089 Y138.26 E221.75911
G0 F9000 X141.089 Y138.826
G1 F3473.7 X141.655 Y139.392 E221.76865
G1 F3157.9 X146.172 Y143.909 E221.84475
G0 F9000 X145.606 Y143.909
G1 F3157.9 X141.089 Y139.391 E221.92086
G0 F9000 X141.089 Y139.957
G1 F3157.9 X141.655 Y140.523 E221.9304
G1 F2842.1 X145.041 Y143.909 E221.98744
G0 F9000 X144.475 Y143.909
G1 F2842.1 X141.089 Y140.523 E222.04449
G0 F9000 X141.089 Y141.089
G1 F2842.1 X141.655 Y141.655 E222.05403
G1 F2526.3 X143.909 Y143.909 E222.092
G0 F9000 X143.343 Y143.909
G1 F2526.3 X141.089 Y141.654 E222.12999
G0 F9000 X141.089 Y142.22
G1 F2526.3 X141.655 Y142.786 E222.13952
G1 F2210.5 X142.778 Y143.909 E222.15844
G0 F9000 X142.212 Y143.909
G1 F2210.5 X141.089 Y142.786 E222.17736
G0 F9000 X141.089 Y143.351
M205 X30 Y30
G1 F2210.5 X141.646 Y143.909 E222.18676
M204 S1500
G0 F9000 X141.646 Y143.83
G1 F2700 E215.68676
;MESH:NONMESH
G0 F600 X141.646 Y143.83 Z0.8
G0 F9000 X189.56 Y144.56
G0 X189.83 Y144.83
;TIME_ELAPSED:302.299103
;LAYER:3
M205 X50 Y50
;TYPE:WALL-OUTER
;MESH:????????????????.stl
G1 F2700 E222.18676
G1 F1800 X189.83 Y95.17 E222.80951
G1 X140.17 Y95.17 E223.43226
G1 X140.17 Y144.83 E224.05502
G1 X189.83 Y144.83 E224.67777
M204 S3500
G0 F9000 X189.83 Y144.03
G0 X189.43 Y144.43
;TYPE:WALL-INNER
G1 F2100 X189.43 Y137.43 E224.76556
G1 F2400 X189.43 Y129.43 E224.86588
G1 F2700 X189.43 Y120.43 E224.97874
G1 F3000 X189.43 Y110.43 E225.10415
G1 F3300 X189.43 Y99.43 E225.24209
G1 F3600 X189.43 Y95.57 E225.2905
G1 X181.291 Y95.57 E225.39256
G1 F3900 X168.291 Y95.57 E225.55559
G1 F4200 X154.291 Y95.57 E225.73115
G1 F4500 X140.57 Y95.57 E225.90322
G1 X140.57 Y96.849 E225.91926
G1 F4800 X140.57 Y112.849 E226.1199
G1 F5100 X140.57 Y129.849 E226.33309
G1 F5400 X140.57 Y144.43 E226.51594
G1 X143.989 Y144.43 E226.55882
G1 F5700 X162.989 Y144.43 E226.79708
G1 F6000 X189.43 Y144.43 E227.12866
G0 F9000 X189.11 Y144.11
;TYPE:SKIN
G1 F6000 X189.11 Y95.89 E227.70313
G1 X140.89 Y95.89 E228.27759
G1 X140.89 Y144.11 E228.85205
G1 X189.11 Y144.11 E229.42651
G0 F9000 X188.909 Y143.713
G1 F6000 X188.712 Y143.91 E229.42983
G0 F9000 X188.146 Y143.91
G1 F6000 X188.909 Y143.148 E229.44268
G0 F9000 X188.909 Y142.582
G1 F6000 X187.581 Y143.91 E229.46505
G0 F9000 X187.015 Y143.91
G1 F6000 X188.909 Y142.016 E229.49696
G0 F9000 X188.909 Y141.451
G1 F6000 X186.449 Y143.91 E229.5384
G0 F9000 X185.884 Y143.91
G1 F6000 X188.909 Y140.885 E229.58937
G0 F9000 X188.909 Y140.319
G1 F6000 X185.318 Y143.91 E229.64987
G0 F9000 X184.752 Y143.91
G1 F6000 X188.909 Y139.753 E229.7199
G0 F9000 X188.909 Y139.188
G1 F6000 X184.187 Y143.91 E229.79946
G0 F9000 X183.621 Y143.91
G1 F6000 X188.909 Y138.622 E229.88855
G0 F9000 X188.909 Y138.056
G1 F6000 X183.055 Y143.91 E229.98718
G0 F9000 X182.49 Y143.91
G1 F6000 X188.909 Y137.491 E230.09533
G0 F9000 X188.909 Y136.925
G1 F6000 X181.924 Y143.91 E230.21301
G0 F9000 X181.358 Y143.91
G1 F6000 X188.909 Y136.359 E230.34023
G0 F9000 X188.909 Y135.794
G1 F6000 X180.793 Y143.91 E230.47697
G0 F9000 X180.227 Y143.91
G1 F6000 X188.909 Y135.228 E230.62324
G0 F9000 X188.909 Y134.662
G1 F6000 X179.661 Y143.91 E230.77905
G0 F9000 X179.096 Y143.91
G1 F6000 X188.909 Y134.097 E230.94438
G0 F9000 X188.909 Y133.531
G1 F6000 X178.53 Y143.91 E231.11925
G0 F9000 X177.964 Y143.91
G1 F6000 X188.909 Y132.965 E231.30365
G0 F9000 X188.909 Y132.4
G1 F6000 X177.398 Y143.91 E231.49758
G0 F9000 X176.833 Y143.91
G1 F6000 X188.909 Y131.834 E231.70104
G0 F9000 X188.909 Y131.268
G1 F6000 X176.267 Y143.91 E231.91403
G0 F9000 X175.701 Y143.91
G1 F6000 X188.909 Y130.703 E232.13655
G0 F9000 X188.909 Y130.137
G1 F6000 X175.136 Y143.91 E232.3686
G0 F9000 X174.57 Y143.91
G1 F6000 X188.909 Y129.571 E232.61018
G0 F9000 X188.909 Y129.005
G1 F6000 X174.004 Y143.91 E232.8613
G0 F9000 X173.439 Y143.91
G1 F6000 X188.909 Y128.44 E233.12194
G0 F9000 X188.909 Y127.874
G1 F6000 X172.873 Y143.91 E233.39212
G0 F9000 X172.307 Y143.91
G1 F6000 X188.909 Y127.308 E233.67183
G0 F9000 X188.909 Y126.743
G1 F6000 X171.742 Y143.91 E233.96106
G0 F9000 X171.176 Y143.91
G1 F6000 X188.909 Y126.177 E234.25982
G0 F9000 X188.909 Y125.611
G1 F6000 X170.61 Y143.91 E234.56812
G0 F9000 X170.045 Y143.91
G1 F6000 X188.909 Y125.046 E234.88595
G0 F9000 X188.909 Y124.48
G1 F6000 X169.479 Y143.91 E235.2133
G0 F9000 X168.913 Y143.91
G1 F6000 X188.909 Y123.914 E235.5502
G0 F9000 X188.909 Y123.349
G1 F6000 X168.347 Y143.91 E235.89662
G0 F9000 X167.782 Y143.91
G1 F6000 X188.909 Y122.783 E236.25257
G0 F9000 X188.909 Y122.217
G1 F6000 X167.216 Y143.91 E236.61805
G0 F9000 X166.65 Y143.91
G1 F6000 X188.909 Y121.652 E236.99306
G0 F9000 X188.909 Y121.086
G1 F6000 X166.085 Y143.91 E237.3776
G0 F9000 X165.519 Y143.91
G1 F6000 X188.909 Y120.52 E237.77168
G0 F9000 X188.909 Y119.955
G1 F6000 X164.953 Y143.91 E238.17528
G0 F9000 X164.388 Y143.91
G1 F6000 X188.909 Y119.389 E238.58841
G0 F9000 X188.909 Y118.823
G1 F6000 X163.822 Y143.91 E239.01108
G0 F9000 X163.256 Y143.91
G1 F6000 X188.909 Y118.257 E239.44328
G0 F9000 X188.909 Y117.692
G1 F6000 X162.691 Y143.91 E239.885
G0 F9000 X162.125 Y143.91
G1 F6000 X188.909 Y117.126 E240.33626
G0 F9000 X188.909 Y116.56
G1 F6000 X161.559 Y143.91 E240.79705
G0 F9000 X160.994 Y143.91
G1 F6000 X188.909 Y115.995 E241.26736
G0 F9000 X188.909 Y115.429
G1 F6000 X160.428 Y143.91 E241.74721
G0 F9000 X159.862 Y143.91
G1 F6000 X188.909 Y114.863 E242.2366
G0 F9000 X188.909 Y114.298
G1 F6000 X159.297 Y143.91 E242.7355
G0 F9000 X158.731 Y143.91
G1 F6000 X188.909 Y113.732 E243.24394
G0 F9000 X188.909 Y113.166
G1 F6000 X158.165 Y143.91 E243.76191
G0 F9000 X157.599 Y143.91
G1 F6000 X188.909 Y112.601 E244.28942
G0 F9000 X188.909 Y112.035
G1 F6000 X157.034 Y143.91 E244.82645
G0 F9000 X156.468 Y143.91
G1 F6000 X188.909 Y111.469 E245.37302
G0 F9000 X188.909 Y110.904
G1 F6000 X155.902 Y143.91 E245.92911
G0 F9000 X155.337 Y143.91
G1 F6000 X188.909 Y110.338 E246.49473
G0 F9000 X188.909 Y109.772
G1 F6000 X154.771 Y143.91 E247.06989
G0 F9000 X154.205 Y143.91
G1 F6000 X188.909 Y109.206 E247.65458
G0 F9000 X188.909 Y108.641
G1 F6000 X153.64 Y143.91 E248.2488
G0 F9000 X153.074 Y143.91
G1 F6000 X188.909 Y108.075 E248.85255
G0 F9000 X188.909 Y107.509
G1 F6000 X152.508 Y143.91 E249.46583
G0 F9000 X151.943 Y143.91
G1 F6000 X188.909 Y106.944 E250.08863
G0 F9000 X188.909 Y106.378
G1 F6000 X151.377 Y143.91 E250.72097
G0 F9000 X150.811 Y143.91
G1 F6000 X188.909 Y105.812 E251.36285
G0 F9000 X188.909 Y105.247
G1 F6000 X150.246 Y143.91 E252.01425
G0 F9000 X149.68 Y143.91
G1 F6000 X188.909 Y104.681 E252.67518
G0 F9000 X188.909 Y104.115
G1 F6000 X149.114 Y143.91 E253.34564
G0 F9000 X148.548 Y143.91
G1 F6000 X188.909 Y103.55 E254.02564
G0 F9000 X188.909 Y102.984
G1 F6000 X147.983 Y143.91 E254.71516
G0 F9000 X147.417 Y143.91
G1 F6000 X188.909 Y102.418 E255.41422
G0 F9000 X188.909 Y101.853
G1 F6000 X146.851 Y143.91 E256.12281
G0 F9000 X146.286 Y143.91
G1 F6000 X188.909 Y101.287 E256.84092
G0 F9000 X188.909 Y100.721
G1 F6000 X145.72 Y143.91 E257.56857
G0 F9000 X145.154 Y143.91
G1 F6000 X188.909 Y100.156 E258.30574
G0 F9000 X188.909 Y99.59
G1 F6000 X144.589 Y143.91 E259.05245
G0 F9000 X144.023 Y143.91
G1 F6000 X188.909 Y99.024 E259.80869
G0 F9000 X188.909 Y98.458
G1 F6000 X143.457 Y143.91 E260.57447
G0 F9000 X142.892 Y143.91
G1 F6000 X188.909 Y97.893 E261.34976
G0 F9000 X188.909 Y97.327
G1 F6000 X142.326 Y143.91 E262.13459
G0 F9000 X141.76 Y143.91
G1 F6000 X188.909 Y96.761 E262.92896
G0 F9000 X188.909 Y96.196
G1 F6000 X141.195 Y143.91 E263.73285
G0 F9000 X141.089 Y143.45
G1 F6000 X188.449 Y96.09 E264.53077
G0 F9000 X187.883 Y96.09
G1 F6000 X141.089 Y142.884 E265.31916
G0 F9000 X141.089 Y142.318
G1 F6000 X187.318 Y96.09 E266.09802
G0 F9000 X186.752 Y96.09
G1 F6000 X141.089 Y141.752 E266.86734
G0 F9000 X141.089 Y141.187
G1 F6000 X186.186 Y96.09 E267.62713
G0 F9000 X185.621 Y96.09
G1 F6000 X141.089 Y140.621 E268.3774
G0 F9000 X141.089 Y140.055
G1 F6000 X185.055 Y96.09 E269.11813
G0 F9000 X184.489 Y96.09
G1 F6000 X141.089 Y139.49 E269.84934
G0 F9000 X141.089 Y138.924
G1 F6000 X183.924 Y96.09 E270.57101
G0 F9000 X183.358 Y96.09
G1 F6000 X141.089 Y138.358 E271.28315
G0 F9000 X141.089 Y137.793
G1 F6000 X182.792 Y96.09 E271.98577
G0 F9000 X182.227 Y96.09
G1 F6000 X141.089 Y137.227 E272.67885
G0 F9000 X141.089 Y136.661
G1 F6000 X181.661 Y96.09 E273.3624
G0 F9000 X181.095 Y96.09
G1 F6000 X141.089 Y136.096 E274.03643
G0 F9000 X141.089 Y135.53
G1 F6000 X180.53 Y96.09 E274.70092
G0 F9000 X179.964 Y96.09
G1 F6000 X141.089 Y134.964 E275.35588
G0 F9000 X141.089 Y134.399
G1 F6000 X179.398 Y96.09 E276.00131
G0 F9000 X178.832 Y96.09
G1 F6000 X141.089 Y133.833 E276.6372
G0 F9000 X141.089 Y133.267
G1 F6000 X178.267 Y96.09 E277.26357
G0 F9000 X177.701 Y96.09
G1 F6000 X141.089 Y132.702 E277.88041
G0 F9000 X141.089 Y132.136
G1 F6000 X177.135 Y96.09 E278.48772
G0 F9000 X176.57 Y96.09
G1 F6000 X141.089 Y131.57 E279.08549
G0 F9000 X141.089 Y131.004
G1 F6000 X176.004 Y96.09 E279.67373
G0 F9000 X175.438 Y96.09
G1 F6000 X141.089 Y130.439 E280.25244
G0 F9000 X141.089 Y129.873
G1 F6000 X174.873 Y96.09 E280.82163
G0 F9000 X174.307 Y96.09
G1 F6000 X141.089 Y129.307 E281.38128
G0 F9000 X141.089 Y128.742
G1 F6000 X173.741 Y96.09 E281.9314
G0 F9000 X173.176 Y96.09
G1 F6000 X141.089 Y128.176 E282.472
G0 F9000 X141.089 Y127.61
G1 F6000 X172.61 Y96.09 E283.00305
G0 F9000 X172.044 Y96.09
G1 F6000 X141.089 Y127.045 E283.52458
G0 F9000 X141.089 Y126.479
G1 F6000 X171.479 Y96.09 E284.03659
G0 F9000 X170.913 Y96.09
G1 F6000 X141.089 Y125.913 E284.53905
G0 F9000 X141.089 Y125.348
G1 F6000 X170.347 Y96.09 E285.03199
G0 F9000 X169.781 Y96.09
G1 F6000 X141.089 Y124.782 E285.5154
G0 F9000 X141.089 Y124.216
G1 F6000 X169.216 Y96.09 E285.98927
G0 F9000 X168.65 Y96.09
G1 F6000 X141.089 Y123.651 E286.45362
G0 F9000 X141.089 Y123.085
G1 F6000 X168.084 Y96.09 E286.90843
G0 F9000 X167.519 Y96.09
G1 F6000 X141.089 Y122.519 E287.35372
G0 F9000 X141.089 Y121.953
G1 F6000 X166.953 Y96.09 E287.78947
G0 F9000 X166.387 Y96.09
G1 F6000 X141.089 Y121.388 E288.21569
G0 F9000 X141.089 Y120.822
G1 F6000 X165.822 Y96.09 E288.63238
G0 F9000 X165.256 Y96.09
G1 F6000 X141.089 Y120.256 E289.03954
G0 F9000 X141.089 Y119.691
G1 F6000 X164.69 Y96.09 E289.43717
G0 F9000 X164.125 Y96.09
G1 F6000 X141.089 Y119.125 E289.82527
G0 F9000 X141.089 Y118.559
G1 F6000 X163.559 Y96.09 E290.20384
G0 F9000 X162.993 Y96.09
G1 F6000 X141.089 Y117.994 E290.57288
G0 F9000 X141.089 Y117.428
G1 F6000 X162.428 Y96.09 E290.93239
G0 F9000 X161.862 Y96.09
G1 F6000 X141.089 Y116.862 E291.28237
G0 F9000 X141.089 Y116.297
G1 F6000 X161.296 Y96.09 E291.62281
G0 F9000 X160.731 Y96.09
G1 F6000 X141.089 Y115.731 E291.95373
G0 F9000 X141.089 Y115.165
G1 F6000 X160.165 Y96.09 E292.27512
G0 F9000 X159.599 Y96.09
G1 F6000 X141.089 Y114.6 E292.58698
G0 F9000 X141.089 Y114.034
G1 F6000 X159.033 Y96.09 E292.8893
G0 F9000 X158.468 Y96.09
G1 F6000 X141.089 Y113.468 E293.18209
G0 F9000 X141.089 Y112.903
G1 F6000 X157.902 Y96.09 E293.46536
G0 F9000 X157.336 Y96.09
G1 F6000 X141.089 Y112.337 E293.73909
G0 F9000 X141.089 Y111.771
G1 F6000 X156.771 Y96.09 E294.00329
G0 F9000 X156.205 Y96.09
G1 F6000 X141.089 Y111.205 E294.25796
G0 F9000 X141.089 Y110.64
G1 F6000 X155.639 Y96.09 E294.50309
G0 F9000 X155.074 Y96.09
G1 F6000 X141.089 Y110.074 E294.73871
G0 F9000 X141.089 Y109.508
G1 F6000 X141.655 Y108.942 E294.74824
G1 F5684.2 X154.508 Y96.09 E294.96478
G0 F9000 X153.942 Y96.09
G1 F5684.2 X141.089 Y108.943 E295.18133
G0 F9000 X141.089 Y108.377
G1 F5684.2 X141.29 Y108.176 E295.18471
G1 F5368.4 X153.377 Y96.09 E295.38835
G0 F9000 X152.811 Y96.09
G1 F5368.4 X152.245 Y96.656 E295.39788
G1 F5052.6 X141.089 Y107.811 E295.58583
G0 F9000 X141.089 Y107.246
G1 F5052.6 X152.245 Y96.09 E295.77379
G0 F9000 X151.68 Y96.09
G1 F5052.6 X151.113 Y96.656 E295.78333
G1 F4736.8 X141.089 Y106.68 E295.95222
G0 F9000 X141.089 Y106.114
G1 F4736.8 X151.114 Y96.09 E296.12111
G0 F9000 X150.548 Y96.09
G1 F4736.8 X149.982 Y96.656 E296.13065
G1 F4421.1 X141.089 Y105.549 E296.28048
G0 F9000 X141.089 Y104.983
G1 F4421.1 X149.983 Y96.09 E296.43031
G0 F9000 X149.417 Y96.09
G1 F4421.1 X148.851 Y96.656 E296.43985
G1 F4105.3 X141.089 Y104.417 E296.57062
G0 F9000 X141.089 Y103.852
G1 F4105.3 X148.851 Y96.09 E296.70139
G0 F9000 X148.285 Y96.09
G1 F4105.3 X147.719 Y96.656 E296.71093
G1 F3789.5 X141.089 Y103.286 E296.82263
G0 F9000 X141.089 Y102.72
G1 F3789.5 X147.72 Y96.09 E296.93434
G0 F9000 X147.154 Y96.09
G1 F3789.5 X146.588 Y96.656 E296.94388
G1 F3473.7 X141.089 Y102.155 E297.03652
G0 F9000 X141.089 Y101.589
G1 F3473.7 X146.588 Y96.09 E297.12917
G0 F9000 X146.023 Y96.09
G1 F3473.7 X145.456 Y96.656 E297.13871
G1 F3157.9 X141.089 Y101.023 E297.21229
G0 F9000 X141.089 Y100.457
G1 F3157.9 X145.457 Y96.09 E297.28587
G0 F9000 X144.891 Y96.09
G1 F3157.9 X144.325 Y96.656 E297.29541
G1 F2842.1 X141.089 Y99.892 E297.34993
G0 F9000 X141.089 Y99.326
G1 F2842.1 X144.326 Y96.09 E297.40446
G0 F9000 X143.76 Y96.09
G1 F2842.1 X143.194 Y96.656 E297.41399
G1 F2526.3 X141.089 Y98.76 E297.44945
G0 F9000 X141.089 Y98.195
G1 F2526.3 X143.194 Y96.09 E297.48492
G0 F9000 X142.629 Y96.09
G1 F2526.3 X142.062 Y96.656 E297.49446
G1 F2210.5 X141.089 Y97.629 E297.51085
G0 F9000 X141.089 Y97.063
G1 F2210.5 X142.063 Y96.09 E297.52726
G0 F9000 X141.497 Y96.09
M205 X30 Y30
G1 F2210.5 X141.089 Y96.498 E297.53413
M204 S1500
G0 F9000 X141.17 Y96.498
G1 F2700 E291.03413
;MESH:NONMESH
G0 F600 X141.17 Y96.498 Z1
G0 F9000 X189.56 Y144.56
G0 X189.83 Y144.83
;TIME_ELAPSED:376.699487
;LAYER:4
M205 X50 Y50
;TYPE:WALL-OUTER
;MESH:????????????????.stl
G1 F2700 E297.53413
G1 F1800 X189.83 Y95.17 E298.15688
G1 X140.17 Y95.17 E298.77964
G1 X140.17 Y144.83 E299.40239
G1 X189.83 Y144.83 E300.02515
M204 S3500
G0 F9000 X189.83 Y144.03
G0 X189.43 Y144.43
;TYPE:WALL-INNER
G1 F2100 X189.43 Y137.43 E300.11293
G1 F2400 X189.43 Y129.43 E300.21325
G1 F2700 X189.43 Y120.43 E300.32612
G1 F3000 X189.43 Y110.43 E300.45152
G1 F3300 X189.43 Y99.43 E300.58947
G1 F3600 X189.43 Y95.57 E300.63787
G1 X181.291 Y95.57 E300.73994
G1 F3900 X168.291 Y95.57 E300.90296
G1 F4200 X154.291 Y95.57 E301.07853
G1 F4500 X140.57 Y95.57 E301.25059
G1 X140.57 Y96.849 E301.26663
G1 F4800 X140.57 Y112.849 E301.46728
G1 F5100 X140.57 Y129.849 E301.68047
G1 F5400 X140.57 Y144.43 E301.86332
G1 X143.989 Y144.43 E301.90619
G1 F5700 X162.989 Y144.43 E302.14446
G1 F6000 X189.43 Y144.43 E302.47604
G0 F9000 X189.11 Y144.11
;TYPE:SKIN
G1 F6000 X189.11 Y95.89 E303.0505
G1 X140.89 Y95.89 E303.62496
G1 X140.89 Y144.11 E304.19942
G1 X189.11 Y144.11 E304.77389
G1 F2700 E298.27389
G0 F9000 X188.909 Y96.702
G1 F2700 E304.77389
G1 F6000 X188.296 Y96.09 E304.78421
G0 F9000 X187.731 Y96.09
G1 F6000 X188.909 Y97.268 E304.80405
G0 F9000 X188.909 Y97.833
G1 F6000 X187.165 Y96.09 E304.83343
G0 F9000 X186.599 Y96.09
G1 F6000 X188.909 Y98.399 E304.87234
G0 F9000 X188.909 Y98.965
G1 F6000 X186.034 Y96.09 E304.92078
G0 F9000 X185.468 Y96.09
G1 F6000 X188.909 Y99.53 E304.97874
G0 F9000 X188.909 Y100.096
G1 F6000 X184.902 Y96.09 E305.04624
G0 F9000 X184.337 Y96.09
G1 F6000 X188.909 Y100.662 E305.12327
G0 F9000 X188.909 Y101.227
G1 F6000 X183.771 Y96.09 E305.20983
G0 F9000 X183.205 Y96.09
G1 F6000 X188.909 Y101.793 E305.30592
G0 F9000 X188.909 Y102.359
G1 F6000 X182.64 Y96.09 E305.41154
G0 F9000 X182.074 Y96.09
G1 F6000 X188.909 Y102.925 E305.5267
G0 F9000 X188.909 Y103.49
G1 F6000 X181.508 Y96.09 E305.65138
G0 F9000 X180.942 Y96.09
G1 F6000 X188.909 Y104.056 E305.7856
G0 F9000 X188.909 Y104.622
G1 F6000 X180.377 Y96.09 E305.92935
G0 F9000 X179.811 Y96.09
G1 F6000 X188.909 Y105.187 E306.08262
G0 F9000 X188.909 Y105.753
G1 F6000 X179.245 Y96.09 E306.24543
G0 F9000 X178.68 Y96.09
G1 F6000 X188.909 Y106.319 E306.41777
G0 F9000 X188.909 Y106.884
G1 F6000 X178.114 Y96.09 E306.59964
G0 F9000 X177.548 Y96.09
G1 F6000 X188.909 Y107.45 E306.79104
G0 F9000 X188.909 Y108.016
G1 F6000 X176.983 Y96.09 E306.99197
G0 F9000 X176.417 Y96.09
G1 F6000 X188.909 Y108.581 E307.20243
G0 F9000 X188.909 Y109.147
G1 F6000 X175.851 Y96.09 E307.42242
G0 F9000 X175.286 Y96.09
G1 F6000 X188.909 Y109.713 E307.65194
G0 F9000 X188.909 Y110.278
G1 F6000 X174.72 Y96.09 E307.89099
G0 F9000 X174.154 Y96.09
G1 F6000 X188.909 Y110.844 E308.13957
G0 F9000 X188.909 Y111.41
G1 F6000 X173.589 Y96.09 E308.39769
G0 F9000 X173.023 Y96.09
G1 F6000 X188.909 Y111.976 E308.66533
G0 F9000 X188.909 Y112.541
G1 F6000 X172.457 Y96.09 E308.94251
G0 F9000 X171.892 Y96.09
G1 F6000 X188.909 Y113.107 E309.22921
G0 F9000 X188.909 Y113.673
G1 F6000 X171.326 Y96.09 E309.52545
G0 F9000 X170.76 Y96.09
G1 F6000 X188.909 Y114.238 E309.83122
G0 F9000 X188.909 Y114.804
G1 F6000 X170.194 Y96.09 E310.14652
G0 F9000 X169.629 Y96.09
G1 F6000 X188.909 Y115.37 E310.47135
G0 F9000 X188.909 Y115.935
G1 F6000 X169.063 Y96.09 E310.80571
G0 F9000 X168.497 Y96.09
G1 F6000 X188.909 Y116.501 E311.1496
G0 F9000 X188.909 Y117.067
G1 F6000 X167.932 Y96.09 E311.50302
G0 F9000 X167.366 Y96.09
G1 F6000 X188.909 Y117.632 E311.86597
G0 F9000 X188.909 Y118.198
G1 F6000 X166.8 Y96.09 E312.23845
G0 F9000 X166.235 Y96.09
G1 F6000 X188.909 Y118.764 E312.62047
G0 F9000 X188.909 Y119.329
G1 F6000 X165.669 Y96.09 E313.01201
G0 F9000 X165.103 Y96.09
G1 F6000 X188.909 Y119.895 E313.41308
G0 F9000 X188.909 Y120.461
G1 F6000 X164.538 Y96.09 E313.82368
G0 F9000 X163.972 Y96.09
G1 F6000 X188.909 Y121.026 E314.24382
G0 F9000 X188.909 Y121.592
G1 F6000 X163.406 Y96.09 E314.67348
G0 F9000 X162.841 Y96.09
G1 F6000 X188.909 Y122.158 E315.11268
G0 F9000 X188.909 Y122.724
G1 F6000 X162.275 Y96.09 E315.56141
G0 F9000 X161.709 Y96.09
G1 F6000 X188.909 Y123.289 E316.01966
G0 F9000 X188.909 Y123.855
G1 F6000 X161.143 Y96.09 E316.48746
G0 F9000 X160.578 Y96.09
G1 F6000 X188.909 Y124.421 E316.96478
G0 F9000 X188.909 Y124.986
G1 F6000 X160.012 Y96.09 E317.45163
G0 F9000 X159.446 Y96.09
G1 F6000 X188.909 Y125.552 E317.94801
G0 F9000 X188.909 Y126.118
G1 F6000 X158.881 Y96.09 E318.45393
G0 F9000 X158.315 Y96.09
G1 F6000 X188.909 Y126.683 E318.96937
G0 F9000 X188.909 Y127.249
G1 F6000 X157.749 Y96.09 E319.49434
G0 F9000 X157.184 Y96.09
G1 F6000 X188.909 Y127.815 E320.02885
G0 F9000 X188.909 Y128.38
G1 F6000 X156.618 Y96.09 E320.57288
G0 F9000 X156.052 Y96.09
G1 F6000 X188.909 Y128.946 E321.12644
G0 F9000 X188.909 Y129.512
G1 F6000 X155.487 Y96.09 E321.68954
G0 F9000 X154.921 Y96.09
G1 F6000 X188.909 Y130.077 E322.26216
G0 F9000 X188.909 Y130.643
G1 F6000 X154.355 Y96.09 E322.84432
G0 F9000 X153.79 Y96.09
G1 F6000 X188.909 Y131.209 E323.436
G0 F9000 X188.909 Y131.775
G1 F6000 X153.224 Y96.09 E324.03723
G0 F9000 X152.658 Y96.09
G1 F6000 X188.909 Y132.34 E324.64798
G0 F9000 X188.909 Y132.906
G1 F6000 X152.093 Y96.09 E325.26825
G0 F9000 X151.527 Y96.09
G1 F6000 X188.909 Y133.472 E325.89807
G0 F9000 X188.909 Y134.037
G1 F6000 X150.961 Y96.09 E326.53741
G0 F9000 X150.395 Y96.09
G1 F6000 X188.909 Y134.603 E327.18628
G0 F9000 X188.909 Y135.169
G1 F6000 X149.83 Y96.09 E327.84469
G0 F9000 X149.264 Y96.09
G1 F6000 X188.909 Y135.734 E328.51262
G0 F9000 X188.909 Y136.3
G1 F6000 X148.698 Y96.09 E329.19009
G0 F9000 X148.133 Y96.09
G1 F6000 X188.909 Y136.866 E329.87708
G0 F9000 X188.909 Y137.431
G1 F6000 X147.567 Y96.09 E330.5736
G0 F9000 X147.001 Y96.09
G1 F6000 X188.909 Y137.997 E331.27966
G0 F9000 X188.909 Y138.563
G1 F6000 X146.436 Y96.09 E331.99525
G0 F9000 X145.87 Y96.09
G1 F6000 X188.909 Y139.128 E332.72036
G0 F9000 X188.909 Y139.694
G1 F6000 X145.304 Y96.09 E333.45501
G0 F9000 X144.739 Y96.09
G1 F6000 X188.909 Y140.26 E334.19919
G0 F9000 X188.909 Y140.825
G1 F6000 X144.173 Y96.09 E334.95289
G0 F9000 X143.607 Y96.09
G1 F6000 X188.909 Y141.391 E335.71613
G0 F9000 X188.909 Y141.957
G1 F6000 X143.042 Y96.09 E336.4889
G0 F9000 X142.476 Y96.09
G1 F6000 X188.909 Y142.523 E337.27121
G0 F9000 X188.909 Y143.088
G1 F6000 X141.91 Y96.09 E338.06304
G0 F9000 X141.344 Y96.09
G1 F6000 X188.909 Y143.654 E338.86441
G0 F9000 X188.598 Y143.909
G1 F6000 X141.089 Y96.399 E339.66485
G0 F9000 X141.089 Y96.965
G1 F6000 X188.033 Y143.909 E340.45576
G0 F9000 X187.467 Y143.909
G1 F6000 X141.089 Y97.531 E341.23714
G0 F9000 X141.089 Y98.096
G1 F6000 X186.901 Y143.909 E342.00899
G0 F9000 X186.336 Y143.909
G1 F6000 X141.089 Y98.662 E342.77131
G0 F9000 X141.089 Y99.228
G1 F6000 X185.77 Y143.909 E343.5241
G0 F9000 X185.204 Y143.909
G1 F6000 X141.089 Y99.793 E344.26736
G0 F9000 X141.089 Y100.359
G1 F6000 X184.639 Y143.909 E345.00109
G0 F9000 X184.073 Y143.909
G1 F6000 X141.089 Y100.925 E345.72528
G0 F9000 X141.089 Y101.491
G1 F6000 X183.507 Y143.909 E346.43994
G0 F9000 X182.941 Y143.909
G1 F6000 X141.089 Y102.056 E347.14508
G0 F9000 X141.089 Y102.622
G1 F6000 X182.376 Y143.909 E347.84068
G0 F9000 X181.81 Y143.909
G1 F6000 X141.089 Y103.188 E348.52675
G0 F9000 X141.089 Y103.753
G1 F6000 X181.244 Y143.909 E349.20329
G0 F9000 X180.679 Y143.909
G1 F6000 X141.089 Y104.319 E349.8703
G0 F9000 X141.089 Y104.885
G1 F6000 X180.113 Y143.909 E350.52778
G0 F9000 X179.547 Y143.909
G1 F6000 X141.089 Y105.45 E351.17573
G0 F9000 X141.089 Y106.016
G1 F6000 X178.982 Y143.909 E351.81415
G0 F9000 X178.416 Y143.909
G1 F6000 X141.089 Y106.582 E352.44304
G0 F9000 X141.089 Y107.147
G1 F6000 X177.85 Y143.909 E353.0624
G0 F9000 X177.285 Y143.909
G1 F6000 X141.089 Y107.713 E353.67223
G0 F9000 X141.089 Y108.279
G1 F6000 X176.719 Y143.909 E354.27252
G0 F9000 X176.153 Y143.909
G1 F6000 X141.089 Y108.844 E354.86329
G0 F9000 X141.089 Y109.41
G1 F6000 X175.588 Y143.909 E355.44453
G0 F9000 X175.022 Y143.909
G1 F6000 X141.089 Y109.976 E356.01623
G0 F9000 X141.089 Y110.542
G1 F6000 X174.456 Y143.909 E356.5784
G0 F9000 X173.89 Y143.909
G1 F6000 X141.089 Y111.107 E357.13104
G0 F9000 X141.089 Y111.673
G1 F6000 X173.325 Y143.909 E357.67416
G0 F9000 X172.759 Y143.909
G1 F6000 X141.089 Y112.239 E358.20773
G0 F9000 X141.089 Y112.804
G1 F6000 X172.193 Y143.909 E358.73178
G0 F9000 X171.628 Y143.909
G1 F6000 X141.089 Y113.37 E359.2463
G0 F9000 X141.089 Y113.936
G1 F6000 X171.062 Y143.909 E359.75129
G0 F9000 X170.496 Y143.909
G1 F6000 X141.089 Y114.501 E360.24675
G0 F9000 X141.089 Y115.067
G1 F6000 X169.931 Y143.909 E360.73268
G0 F9000 X169.365 Y143.909
G1 F6000 X141.089 Y115.633 E361.20907
G0 F9000 X141.089 Y116.198
G1 F6000 X168.799 Y143.909 E361.67594
G0 F9000 X168.234 Y143.909
G1 F6000 X141.089 Y116.764 E362.13328
G0 F9000 X141.089 Y117.33
G1 F6000 X167.668 Y143.909 E362.58108
G0 F9000 X167.102 Y143.909
G1 F6000 X141.089 Y117.895 E363.01936
G0 F9000 X141.089 Y118.461
G1 F6000 X166.537 Y143.909 E363.44811
G0 F9000 X165.971 Y143.909
G1 F6000 X141.089 Y119.027 E363.86732
G0 F9000 X141.089 Y119.592
G1 F6000 X165.405 Y143.909 E364.27701
G0 F9000 X164.84 Y143.909
G1 F6000 X141.089 Y120.158 E364.67716
G0 F9000 X141.089 Y120.724
G1 F6000 X164.274 Y143.909 E365.06779
G0 F9000 X163.708 Y143.909
G1 F6000 X141.089 Y121.29 E365.44887
G0 F9000 X141.089 Y121.855
G1 F6000 X163.142 Y143.909 E365.82043
G0 F9000 X162.577 Y143.909
G1 F6000 X141.089 Y122.421 E366.18246
G0 F9000 X141.089 Y122.987
G1 F6000 X162.011 Y143.909 E366.53495
G0 F9000 X161.445 Y143.909
G1 F6000 X141.089 Y123.552 E366.87792
G0 F9000 X141.089 Y124.118
G1 F6000 X160.88 Y143.909 E367.21136
G0 F9000 X160.314 Y143.909
G1 F6000 X141.089 Y124.684 E367.53526
G0 F9000 X141.089 Y125.249
G1 F6000 X159.748 Y143.909 E367.84964
G0 F9000 X159.183 Y143.909
G1 F6000 X141.089 Y125.815 E368.15449
G0 F9000 X141.089 Y126.381
G1 F6000 X158.617 Y143.909 E368.4498
G0 F9000 X158.051 Y143.909
G1 F6000 X141.089 Y126.946 E368.73558
G0 F9000 X141.089 Y127.512
G1 F6000 X157.486 Y143.909 E369.01184
G0 F9000 X156.92 Y143.909
G1 F6000 X141.089 Y128.078 E369.27856
G0 F9000 X141.089 Y128.643
G1 F6000 X156.354 Y143.909 E369.53576
G0 F9000 X155.789 Y143.909
G1 F6000 X141.089 Y129.209 E369.78342
G0 F9000 X141.089 Y129.775
G1 F6000 X155.223 Y143.909 E370.02155
G0 F9000 X154.657 Y143.909
G1 F6000 X154.091 Y143.343 E370.03109
G1 F5684.2 X141.089 Y130.34 E370.25015
G0 F9000 X141.089 Y130.906
G1 F5684.2 X154.092 Y143.909 E370.46923
G0 F9000 X153.526 Y143.909
G1 F5684.2 X153.176 Y143.559 E370.47513
G1 F5368.4 X141.089 Y131.472 E370.67877
G0 F9000 X141.089 Y132.038
G1 F5368.4 X141.655 Y132.604 E370.6883
G1 F5052.6 X152.96 Y143.909 E370.87877
G0 F9000 X152.394 Y143.909
G1 F5052.6 X141.089 Y132.603 E371.06925
G0 F9000 X141.089 Y133.169
G1 F5052.6 X141.655 Y133.735 E371.07878
G1 F4736.8 X151.829 Y143.909 E371.25019
G0 F9000 X151.263 Y143.909
G1 F4736.8 X141.089 Y133.735 E371.42161
G0 F9000 X141.089 Y134.3
G1 F4736.8 X141.655 Y134.866 E371.43114
G1 F4421.1 X150.697 Y143.909 E371.58349
G0 F9000 X150.132 Y143.909
G1 F4421.1 X141.089 Y134.866 E371.73585
G0 F9000 X141.089 Y135.432
G1 F4421.1 X141.655 Y135.998 E371.74538
G1 F4105.3 X149.566 Y143.909 E371.87867
G0 F9000 X149 Y143.909
G1 F4105.3 X141.089 Y135.997 E372.01196
G0 F9000 X141.089 Y136.563
G1 F4105.3 X141.656 Y137.13 E372.02151
G1 F3789.5 X148.435 Y143.909 E372.13573
G0 F9000 X147.869 Y143.909
G1 F3789.5 X141.089 Y137.129 E372.24996
G0 F9000 X141.089 Y137.694
G1 F3789.5 X141.655 Y138.26 E372.25949
G1 F3473.7 X147.303 Y143.909 E372.35466
G0 F9000 X146.738 Y143.909
G1 F3473.7 X141.089 Y138.26 E372.44983
G0 F9000 X141.089 Y138.826
G1 F3473.7 X141.655 Y139.392 E372.45937
G1 F3157.9 X146.172 Y143.909 E372.53547
G0 F9000 X145.606 Y143.909
G1 F3157.9 X141.089 Y139.391 E372.61158
G0 F9000 X141.089 Y139.957
G1 F3157.9 X141.655 Y140.523 E372.62112
G1 F2842.1 X145.041 Y143.909 E372.67816
G0 F9000 X144.475 Y143.909
G1 F2842.1 X141.089 Y140.523 E372.73521
G0 F9000 X141.089 Y141.089
G1 F2842.1 X141.655 Y141.655 E372.74475
G1 F2526.3 X143.909 Y143.909 E372.78272
G0 F9000 X143.343 Y143.909
G1 F2526.3 X141.089 Y141.654 E372.82071
G0 F9000 X141.089 Y142.22
G1 F2526.3 X141.655 Y142.786 E372.83024
G1 F2210.5 X142.778 Y143.909 E372.84916
G0 F9000 X142.212 Y143.909
G1 F2210.5 X141.089 Y142.786 E372.86808
G0 F9000 X141.089 Y143.351
G1 F2210.5 X141.646 Y143.909 E372.87748
G0 F9000 X141.646 Y143.83
G1 F2700 E366.37748
;MESH:NONMESH
G0 F600 X141.646 Y143.83 Z1.2
G0 F9000 X189.07 Y95.93
;TIME_ELAPSED:451.686940
;LAYER:5
;TYPE:FILL
;MESH:????????????????.stl
G1 F2700 E372.87748
G1 F6000 X181.527 Y95.93 E372.97207
G1 X140.929 Y136.527 E373.69206
G1 X140.929 Y133.64 E373.72826
G1 X151.358 Y144.069 E373.91322
G1 X156.013 Y144.07 E373.97159
G1 X189.069 Y111.014 E374.55783
G1 X189.069 Y113.902 E374.59405
G1 X171.097 Y95.93 E374.91278
G1 X166.443 Y95.93 E374.97114
G1 X140.929 Y121.443 E375.42362
G1 X140.929 Y118.556 E375.45982
G1 X166.442 Y144.069 E375.91229
G1 X171.097 Y144.07 E375.97066
G1 X189.069 Y126.098 E376.28939
G1 X189.069 Y128.986 E376.32561
G1 X156.013 Y95.93 E376.91185
G1 X151.359 Y95.93 E376.97021
G1 X140.929 Y106.359 E377.15518
G1 X140.929 Y103.472 E377.19138
G1 X181.526 Y144.069 E377.91136
G1 X186.181 Y144.07 E377.96973
G1 X189.069 Y141.182 E378.02095
G1 X189.07 Y144.07 E378.05717
G1 X140.929 Y95.93 E378.91093
G1 X140.929 Y98.817 E378.94713
G1 X143.817 Y95.93 E378.99834
G1 X148.471 Y95.93 E379.0567
G1 X189.069 Y136.528 E379.7767
G1 X189.069 Y133.64 E379.81292
G1 X178.639 Y144.07 E379.99789
G1 X173.984 Y144.069 E380.05627
G1 X140.929 Y111.014 E380.64249
G1 X140.929 Y113.901 E380.67869
G1 X158.901 Y95.93 E380.99741
G1 X163.555 Y95.93 E381.05578
G1 X189.069 Y121.444 E381.50826
G1 X189.069 Y118.556 E381.54448
G1 X163.555 Y144.07 E381.99696
G1 X158.9 Y144.069 E382.05534
G1 X140.929 Y126.098 E382.37405
G1 X140.929 Y128.985 E382.41025
G1 X172.141 Y97.774 E382.96378
G1 F5700 X173.985 Y95.93 E382.99648
G1 X178.639 Y95.93 E383.05485
G1 X186.939 Y104.23 E383.20205
G1 F5400 X189.069 Y106.36 E383.23982
G1 X189.069 Y103.472 E383.27604
G1 X180.514 Y112.027 E383.42776
G1 F5100 X168.494 Y124.047 E383.64093
G1 F4800 X157.181 Y135.36 E383.84156
G1 F4500 X148.471 Y144.07 E383.99603
G1 X145.79 Y144.069 E384.02965
G1 F4200 X143.816 Y144.069 E384.05441
G1 X140.929 Y141.182 E384.10561
G1 X140.929 Y144.069 E384.14181
G1 X144.504 Y140.494 E384.20521
G1 F3900 X153.696 Y131.302 E384.36823
G1 F3600 X162.181 Y122.817 E384.51871
G1 F3300 X169.959 Y115.039 E384.65665
G1 F3000 X177.03 Y107.968 E384.78206
G1 F2700 X183.394 Y101.605 E384.89491
G1 F2400 X189.05 Y95.949 E384.99522
M205 X30 Y30
G1 F2100 X189.069 Y95.93 E384.99556
G1 X189.069 Y98.818 E385.03177
G1 X186.181 Y95.93 E385.08299
M204 S1500
G1 F2700 E378.58299
G0 F9000 X189.56 Y144.56
G0 X189.83 Y144.83
M205 X50 Y50
;TYPE:WALL-OUTER
G1 F2700 E385.08299
G1 F1800 X189.83 Y95.17 E385.70575
G1 X140.17 Y95.17 E386.3285
G1 X140.17 Y144.83 E386.95125
G1 X189.83 Y144.83 E387.57401
M204 S3500
G0 F9000 X189.83 Y144.03
G0 X189.43 Y144.43
;TYPE:WALL-INNER
G1 F2100 X189.43 Y137.43 E387.66179
G1 F2400 X189.43 Y129.43 E387.76212
G1 F2700 X189.43 Y120.43 E387.87498
G1 F3000 X189.43 Y110.43 E388.00038
G1 F3300 X189.43 Y99.43 E388.13833
G1 F3600 X189.43 Y95.57 E388.18673
G1 X181.291 Y95.57 E388.2888
G1 F3900 X168.291 Y95.57 E388.45182
G1 F4200 X154.291 Y95.57 E388.62739
G1 F4500 X140.57 Y95.57 E388.79945
G1 X140.57 Y96.849 E388.81549
G1 F4800 X140.57 Y112.849 E389.01614
G1 F5100 X140.57 Y129.849 E389.22933
G1 F5400 X140.57 Y144.43 E389.41218
G1 X143.989 Y144.43 E389.45505
G1 F5700 X162.989 Y144.43 E389.69332
G1 F6000 X189.43 Y144.43 E390.0249
G0 F9000 X188.83 Y143.948
G1 F2700 E383.5249
;MESH:NONMESH
G0 F600 X188.83 Y143.948 Z1.4
G0 F9000 X189.07 Y95.93
;TIME_ELAPSED:473.851948
;LAYER:6
;TYPE:FILL
;MESH:????????????????.stl
G1 F2700 E390.0249
G1 F6000 X181.527 Y95.93 E390.11949
G1 X140.929 Y136.527 E390.83948
G1 X140.929 Y133.64 E390.87568
G1 X151.358 Y144.069 E391.06064
G1 X156.013 Y144.07 E391.11901
G1 X189.069 Y111.014 E391.70525
G1 X189.069 Y113.902 E391.74147
G1 X171.097 Y95.93 E392.0602
G1 X166.443 Y95.93 E392.11856
G1 X140.929 Y121.443 E392.57104
G1 X140.929 Y118.556 E392.60724
G1 X166.442 Y144.069 E393.05971
G1 X171.097 Y144.07 E393.11809
G1 X189.069 Y126.098 E393.43681
G1 X189.069 Y128.986 E393.47303
G1 X156.013 Y95.93 E394.05927
G1 X151.359 Y95.93 E394.11763
G1 X140.929 Y106.359 E394.3026
G1 X140.929 Y103.472 E394.3388
G1 X181.526 Y144.069 E395.05878
G1 X186.181 Y144.07 E395.11716
G1 X189.069 Y141.182 E395.16837
G1 X189.07 Y144.07 E395.20459
G1 X140.929 Y95.93 E396.05835
G1 X140.929 Y98.817 E396.09456
G1 X143.817 Y95.93 E396.14576
G1 X148.471 Y95.93 E396.20413
G1 X189.069 Y136.528 E396.92412
G1 X189.069 Y133.64 E396.96034
G1 X178.639 Y144.07 E397.14531
G1 X173.984 Y144.069 E397.20369
G1 X140.929 Y111.014 E397.78991
G1 X140.929 Y113.901 E397.82612
G1 X158.901 Y95.93 E398.14484
G1 X163.555 Y95.93 E398.2032
G1 X189.069 Y121.444 E398.65568
G1 X189.069 Y118.556 E398.6919
G1 X163.555 Y144.07 E399.14439
G1 X158.9 Y144.069 E399.20276
G1 X140.929 Y126.098 E399.52147
G1 X140.929 Y128.985 E399.55768
G1 X172.141 Y97.774 E400.1112
G1 F5700 X173.985 Y95.93 E400.14391
G1 X178.639 Y95.93 E400.20227
G1 X186.939 Y104.23 E400.34947
G1 F5400 X189.069 Y106.36 E400.38724
G1 X189.069 Y103.472 E400.42346
G1 X180.514 Y112.027 E400.57518
G1 F5100 X168.494 Y124.047 E400.78835
G1 F4800 X157.181 Y135.36 E400.98899
G1 F4500 X148.471 Y144.07 E401.14346
G1 X145.79 Y144.069 E401.17708
G1 F4200 X143.816 Y144.069 E401.20183
G1 X140.929 Y141.182 E401.25303
G1 X140.929 Y144.069 E401.28924
G1 X144.504 Y140.494 E401.35264
G1 F3900 X153.696 Y131.302 E401.51566
G1 F3600 X162.181 Y122.817 E401.66614
G1 F3300 X169.959 Y115.039 E401.80408
G1 F3000 X177.03 Y107.968 E401.92948
G1 F2700 X183.394 Y101.605 E402.04233
G1 F2400 X189.05 Y95.949 E402.14264
M205 X30 Y30
G1 F2100 X189.069 Y95.93 E402.14298
G1 X189.069 Y98.818 E402.1792
G1 X186.181 Y95.93 E402.23041
M204 S1500
G1 F2700 E395.73041
G0 F9000 X189.56 Y144.56
G0 X189.83 Y144.83
M205 X50 Y50
;TYPE:WALL-OUTER
G1 F2700 E402.23041
G1 F1800 X189.83 Y95.17 E402.85317
G1 X140.17 Y95.17 E403.47592
G1 X140.17 Y144.83 E404.09868
G1 X189.83 Y144.83 E404.72143
M204 S3500
G0 F9000 X189.83 Y144.03
G0 X189.43 Y144.43
;TYPE:WALL-INNER
G1 F2100 X189.43 Y137.43 E404.80922
G1 F2400 X189.43 Y129.43 E404.90954
G1 F2700 X189.43 Y120.43 E405.0224
G1 F3000 X189.43 Y110.43 E405.14781
G1 F3300 X189.43 Y99.43 E405.28575
G1 F3600 X189.43 Y95.57 E405.33416
G1 X181.291 Y95.57 E405.43622
G1 F3900 X168.291 Y95.57 E405.59925
G1 F4200 X154.291 Y95.57 E405.77481
G1 F4500 X140.57 Y95.57 E405.94688
G1 X140.57 Y96.849 E405.96292
G1 F4800 X140.57 Y112.849 E406.16356
G1 F5100 X140.57 Y129.849 E406.37675
G1 F5400 X140.57 Y144.43 E406.5596
G1 X143.989 Y144.43 E406.60248
G1 F5700 X162.989 Y144.43 E406.84074
G1 F6000 X189.43 Y144.43 E407.17232
G0 F9000 X188.83 Y143.948
G1 F2700 E400.67232
;MESH:NONMESH
G0 F600 X188.83 Y143.948 Z1.6
G0 F9000 X189.07 Y95.93
;TIME_ELAPSED:496.016955
;LAYER:7
;TYPE:FILL
;MESH:????????????????.stl
G1 F2700 E407.17232
G1 F6000 X181.527 Y95.93 E407.26691
G1 X140.929 Y136.527 E407.9869
G1 X140.929 Y133.64 E408.02311
G1 X151.358 Y144.069 E408.20806
G1 X156.013 Y144.07 E408.26644
G1 X189.069 Y111.014 E408.85268
G1 X189.069 Y113.902 E408.88889
G1 X171.097 Y95.93 E409.20762
G1 X166.443 Y95.93 E409.26599
G1 X140.929 Y121.443 E409.71846
G1 X140.929 Y118.556 E409.75467
G1 X166.442 Y144.069 E410.20713
G1 X171.097 Y144.07 E410.26551
G1 X189.069 Y126.098 E410.58424
G1 X189.069 Y128.986 E410.62045
G1 X156.013 Y95.93 E411.20669
G1 X151.359 Y95.93 E411.26506
G1 X140.929 Y106.359 E411.45002
G1 X140.929 Y103.472 E411.48623
G1 X181.526 Y144.069 E412.2062
G1 X186.181 Y144.07 E412.26458
G1 X189.069 Y141.182 E412.3158
G1 X189.07 Y144.07 E412.35201
G1 X140.929 Y95.93 E413.20577
G1 X140.929 Y98.817 E413.24198
G1 X143.817 Y95.93 E413.29319
G1 X148.471 Y95.93 E413.35155
G1 X189.069 Y136.528 E414.07155
G1 X189.069 Y133.64 E414.10776
G1 X178.639 Y144.07 E414.29274
G1 X173.984 Y144.069 E414.35111
G1 X140.929 Y111.014 E414.93733
G1 X140.929 Y113.901 E414.97354
G1 X158.901 Y95.93 E415.29226
G1 X163.555 Y95.93 E415.35062
G1 X189.069 Y121.444 E415.80311
G1 X189.069 Y118.556 E415.83932
G1 X163.555 Y144.07 E416.29181
G1 X158.9 Y144.069 E416.35018
G1 X140.929 Y126.098 E416.66889
G1 X140.929 Y128.985 E416.7051
G1 X172.141 Y97.774 E417.25863
G1 F5700 X173.985 Y95.93 E417.29133
G1 X178.639 Y95.93 E417.34969
G1 X186.939 Y104.23 E417.49689
G1 F5400 X189.069 Y106.36 E417.53467
G1 X189.069 Y103.472 E417.57088
G1 X180.514 Y112.027 E417.7226
G1 F5100 X168.494 Y124.047 E417.93578
G1 F4800 X157.181 Y135.36 E418.13641
G1 F4500 X148.471 Y144.07 E418.29088
G1 X145.79 Y144.069 E418.3245
G1 F4200 X143.816 Y144.069 E418.34925
G1 X140.929 Y141.182 E418.40046
G1 X140.929 Y144.069 E418.43666
G1 X144.504 Y140.494 E418.50006
G1 F3900 X153.696 Y131.302 E418.66308
G1 F3600 X162.181 Y122.817 E418.81356
G1 F3300 X169.959 Y115.039 E418.9515
G1 F3000 X177.03 Y107.968 E419.0769
G1 F2700 X183.394 Y101.605 E419.18976
G1 F2400 X189.05 Y95.949 E419.29006
M205 X30 Y30
G1 F2100 X189.069 Y95.93 E419.2904
G1 X189.069 Y98.818 E419.32662
G1 X186.181 Y95.93 E419.37784
M204 S1500
G1 F2700 E412.87784
G0 F9000 X189.56 Y144.56
G0 X189.83 Y144.83
M205 X50 Y50
;TYPE:WALL-OUTER
G1 F2700 E419.37784
G1 F1800 X189.83 Y95.17 E420.00059
G1 X140.17 Y95.17 E420.62335
G1 X140.17 Y144.83 E421.2461
G1 X189.83 Y144.83 E421.86886
M204 S3500
G0 F9000 X189.83 Y144.03
G0 X189.43 Y144.43
;TYPE:WALL-INNER
G1 F2100 X189.43 Y137.43 E421.95664
G1 F2400 X189.43 Y129.43 E422.05696
G1 F2700 X189.43 Y120.43 E422.16982
G1 F3000 X189.43 Y110.43 E422.29523
G1 F3300 X189.43 Y99.43 E422.43317
G1 F3600 X189.43 Y95.57 E422.48158
G1 X181.291 Y95.57 E422.58364
G1 F3900 X168.291 Y95.57 E422.74667
G1 F4200 X154.291 Y95.57 E422.92223
G1 F4500 X140.57 Y95.57 E423.0943
G1 X140.57 Y96.849 E423.11034
G1 F4800 X140.57 Y112.849 E423.31099
G1 F5100 X140.57 Y129.849 E423.52417
G1 F5400 X140.57 Y144.43 E423.70702
G1 X143.989 Y144.43 E423.7499
G1 F5700 X162.989 Y144.43 E423.98817
G1 F6000 X189.43 Y144.43 E424.31975
G0 F9000 X188.83 Y143.948
G1 F2700 E417.81975
;MESH:NONMESH
G0 F600 X188.83 Y143.948 Z1.8
G0 F9000 X189.07 Y95.93
;TIME_ELAPSED:518.181962
;LAYER:8
;TYPE:FILL
;MESH:????????????????.stl
G1 F2700 E424.31975
G1 F6000 X181.527 Y95.93 E424.41434
G1 X140.929 Y136.527 E425.13432
G1 X140.929 Y133.64 E425.17053
G1 X151.358 Y144.069 E425.35548
G1 X156.013 Y144.07 E425.41386
G1 X189.069 Y111.014 E426.0001
G1 X189.069 Y113.902 E426.03632
G1 X171.097 Y95.93 E426.35505
G1 X166.443 Y95.93 E426.41341
G1 X140.929 Y121.443 E426.86588
G1 X140.929 Y118.556 E426.90209
G1 X166.442 Y144.069 E427.35456
G1 X171.097 Y144.07 E427.41293
G1 X189.069 Y126.098 E427.73166
G1 X189.069 Y128.986 E427.76788
G1 X156.013 Y95.93 E428.35412
G1 X151.359 Y95.93 E428.41248
G1 X140.929 Y106.359 E428.59745
G1 X140.929 Y103.472 E428.63365
G1 X181.526 Y144.069 E429.35363
G1 X186.181 Y144.07 E429.412
G1 X189.069 Y141.182 E429.46322
G1 X189.07 Y144.07 E429.49944
G1 X140.929 Y95.93 E430.3532
G1 X140.929 Y98.817 E430.3894
G1 X143.817 Y95.93 E430.44061
G1 X148.471 Y95.93 E430.49897
G1 X189.069 Y136.528 E431.21897
G1 X189.069 Y133.64 E431.25519
G1 X178.639 Y144.07 E431.44016
G1 X173.984 Y144.069 E431.49854
G1 X140.929 Y111.014 E432.08476
G1 X140.929 Y113.901 E432.12096
G1 X158.901 Y95.93 E432.43968
G1 X163.555 Y95.93 E432.49805
G1 X189.069 Y121.444 E432.95053
G1 X189.069 Y118.556 E432.98675
G1 X163.555 Y144.07 E433.43923
G1 X158.9 Y144.069 E433.49761
G1 X140.929 Y126.098 E433.81632
G1 X140.929 Y128.985 E433.85252
G1 X172.141 Y97.774 E434.40605
G1 F5700 X173.985 Y95.93 E434.43875
G1 X178.639 Y95.93 E434.49712
G1 X186.939 Y104.23 E434.64431
G1 F5400 X189.069 Y106.36 E434.68209
G1 X189.069 Y103.472 E434.71831
G1 X180.514 Y112.027 E434.87003
G1 F5100 X168.494 Y124.047 E435.0832
G1 F4800 X157.181 Y135.36 E435.28383
G1 F4500 X148.471 Y144.07 E435.4383
G1 X145.79 Y144.069 E435.47192
G1 F4200 X143.816 Y144.069 E435.49668
G1 X140.929 Y141.182 E435.54788
G1 X140.929 Y144.069 E435.58408
G1 X144.504 Y140.494 E435.64748
G1 F3900 X153.696 Y131.302 E435.8105
G1 F3600 X162.181 Y122.817 E435.96098
G1 F3300 X169.959 Y115.039 E436.09892
G1 F3000 X177.03 Y107.968 E436.22432
G1 F2700 X183.394 Y101.605 E436.33718
G1 F2400 X189.05 Y95.949 E436.43749
M205 X30 Y30
G1 F2100 X189.069 Y95.93 E436.43782
G1 X189.069 Y98.818 E436.47404
G1 X186.181 Y95.93 E436.52526
M204 S1500
G1 F2700 E430.02526
G0 F9000 X189.56 Y144.56
G0 X189.83 Y144.83
M205 X50 Y50
;TYPE:WALL-OUTER
G1 F2700 E436.52526
G1 F1800 X189.83 Y95.17 E437.14801
G1 X140.17 Y95.17 E437.77077
G1 X140.17 Y144.83 E438.39352
G1 X189.83 Y144.83 E439.01628
M204 S3500
G0 F9000 X189.83 Y144.03
G0 X189.43 Y144.43
;TYPE:WALL-INNER
G1 F2100 X189.43 Y137.43 E439.10406
G1 F2400 X189.43 Y129.43 E439.20438
G1 F2700 X189.43 Y120.43 E439.31725
G1 F3000 X189.43 Y110.43 E439.44265
G1 F3300 X189.43 Y99.43 E439.5806
G1 F3600 X189.43 Y95.57 E439.629
G1 X181.291 Y95.57 E439.73107
G1 F3900 X168.291 Y95.57 E439.89409
G1 F4200 X154.291 Y95.57 E440.06966
G1 F4500 X140.57 Y95.57 E440.24172
G1 X140.57 Y96.849 E440.25776
G1 F4800 X140.57 Y112.849 E440.45841
G1 F5100 X140.57 Y129.849 E440.6716
G1 F5400 X140.57 Y144.43 E440.85445
G1 X143.989 Y144.43 E440.89732
G1 F5700 X162.989 Y144.43 E441.13559
G1 F6000 X189.43 Y144.43 E441.46717
G0 F9000 X188.83 Y143.948
G1 F2700 E434.96717
;MESH:NONMESH
G0 F600 X188.83 Y143.948 Z2
G0 F9000 X189.07 Y95.93
;TIME_ELAPSED:540.346970
;LAYER:9
;TYPE:FILL
;MESH:????????????????.stl
G1 F2700 E441.46717
G1 F6000 X181.527 Y95.93 E441.56176
G1 X140.929 Y136.527 E442.28175
G1 X140.929 Y133.64 E442.31795
G1 X151.358 Y144.069 E442.50291
G1 X156.013 Y144.07 E442.56128
G1 X189.069 Y111.014 E443.14752
G1 X189.069 Y113.902 E443.18374
G1 X171.097 Y95.93 E443.50247
G1 X166.443 Y95.93 E443.56083
G1 X140.929 Y121.443 E444.01331
G1 X140.929 Y118.556 E444.04951
G1 X166.442 Y144.069 E444.50198
G1 X171.097 Y144.07 E444.56035
G1 X189.069 Y126.098 E444.87908
G1 X189.069 Y128.986 E444.9153
G1 X156.013 Y95.93 E445.50154
G1 X151.359 Y95.93 E445.5599
G1 X140.929 Y106.359 E445.74487
G1 X140.929 Y103.472 E445.78107
G1 X181.526 Y144.069 E446.50105
G1 X186.181 Y144.07 E446.55943
G1 X189.069 Y141.182 E446.61064
G1 X189.07 Y144.07 E446.64686
G1 X140.929 Y95.93 E447.50062
G1 X140.929 Y98.817 E447.53682
G1 X143.817 Y95.93 E447.58803
G1 X148.471 Y95.93 E447.6464
G1 X189.069 Y136.528 E448.36639
G1 X189.069 Y133.64 E448.40261
G1 X178.639 Y144.07 E448.58758
G1 X173.984 Y144.069 E448.64596
G1 X140.929 Y111.014 E449.23218
G1 X140.929 Y113.901 E449.26838
G1 X158.901 Y95.93 E449.58711
G1 X163.555 Y95.93 E449.64547
G1 X189.069 Y121.444 E450.09795
G1 X189.069 Y118.556 E450.13417
G1 X163.555 Y144.07 E450.58665
G1 X158.9 Y144.069 E450.64503
G1 X140.929 Y126.098 E450.96374
G1 X140.929 Y128.985 E450.99995
G1 X172.141 Y97.774 E451.55347
G1 F5700 X173.985 Y95.93 E451.58618
G1 X178.639 Y95.93 E451.64454
G1 X186.939 Y104.23 E451.79174
G1 F5400 X189.069 Y106.36 E451.82951
G1 X189.069 Y103.472 E451.86573
G1 X180.514 Y112.027 E452.01745
G1 F5100 X168.494 Y124.047 E452.23062
G1 F4800 X157.181 Y135.36 E452.43126
G1 F4500 X148.471 Y144.07 E452.58573
G1 X145.79 Y144.069 E452.61935
G1 F4200 X143.816 Y144.069 E452.6441
G1 X140.929 Y141.182 E452.6953
G1 X140.929 Y144.069 E452.73151
G1 X144.504 Y140.494 E452.79491
G1 F3900 X153.696 Y131.302 E452.95792
G1 F3600 X162.181 Y122.817 E453.1084
G1 F3300 X169.959 Y115.039 E453.24635
G1 F3000 X177.03 Y107.968 E453.37175
G1 F2700 X183.394 Y101.605 E453.4846
G1 F2400 X189.05 Y95.949 E453.58491
M205 X30 Y30
G1 F2100 X189.069 Y95.93 E453.58525
G1 X189.069 Y98.818 E453.62146
G1 X186.181 Y95.93 E453.67268
M204 S1500
G1 F2700 E447.17268
G0 F9000 X189.56 Y144.56
G0 X189.83 Y144.83
M205 X50 Y50
;TYPE:WALL-OUTER
G1 F2700 E453.67268
G1 F1800 X189.83 Y95.17 E454.29544
G1 X140.17 Y95.17 E454.91819
G1 X140.17 Y144.83 E455.54095
G1 X189.83 Y144.83 E456.1637
M204 S3500
G0 F9000 X189.83 Y144.03
G0 X189.43 Y144.43
;TYPE:WALL-INNER
G1 F2100 X189.43 Y137.43 E456.25148
G1 F2400 X189.43 Y129.43 E456.35181
G1 F2700 X189.43 Y120.43 E456.46467
G1 F3000 X189.43 Y110.43 E456.59007
G1 F3300 X189.43 Y99.43 E456.72802
G1 F3600 X189.43 Y95.57 E456.77642
G1 X181.291 Y95.57 E456.87849
G1 F3900 X168.291 Y95.57 E457.04152
G1 F4200 X154.291 Y95.57 E457.21708
G1 F4500 X140.57 Y95.57 E457.38915
G1 X140.57 Y96.849 E457.40519
G1 F4800 X140.57 Y112.849 E457.60583
G1 F5100 X140.57 Y129.849 E457.81902
G1 F5400 X140.57 Y144.43 E458.00187
G1 X143.989 Y144.43 E458.04474
G1 F5700 X162.989 Y144.43 E458.28301
G1 F6000 X189.43 Y144.43 E458.61459
G0 F9000 X188.83 Y143.948
G1 F2700 E452.11459
;MESH:NONMESH
G0 F600 X188.83 Y143.948 Z2.2
G0 F9000 X189.07 Y95.93
;TIME_ELAPSED:562.511977
;LAYER:10
;TYPE:FILL
;MESH:????????????????.stl
G1 F2700 E458.61459
G1 F6000 X181.527 Y95.93 E458.70918
G1 X140.929 Y136.527 E459.42917
G1 X140.929 Y133.64 E459.46537
G1 X151.358 Y144.069 E459.65033
G1 X156.013 Y144.07 E459.70871
G1 X189.069 Y111.014 E460.29495
G1 X189.069 Y113.902 E460.33116
G1 X171.097 Y95.93 E460.64989
G1 X166.443 Y95.93 E460.70826
G1 X140.929 Y121.443 E461.16073
G1 X140.929 Y118.556 E461.19694
G1 X166.442 Y144.069 E461.6494
G1 X171.097 Y144.07 E461.70778
G1 X189.069 Y126.098 E462.02651
G1 X189.069 Y128.986 E462.06272
G1 X156.013 Y95.93 E462.64896
G1 X151.359 Y95.93 E462.70733
G1 X140.929 Y106.359 E462.89229
G1 X140.929 Y103.472 E462.9285
G1 X181.526 Y144.069 E463.64847
G1 X186.181 Y144.07 E463.70685
G1 X189.069 Y141.182 E463.75807
G1 X189.07 Y144.07 E463.79428
G1 X140.929 Y95.93 E464.64804
G1 X140.929 Y98.817 E464.68425
G1 X143.817 Y95.93 E464.73546
G1 X148.471 Y95.93 E464.79382
G1 X189.069 Y136.528 E465.51382
G1 X189.069 Y133.64 E465.55003
G1 X178.639 Y144.07 E465.73501
G1 X173.984 Y144.069 E465.79338
G1 X140.929 Y111.014 E466.3796
G1 X140.929 Y113.901 E466.41581
G1 X158.901 Y95.93 E466.73453
G1 X163.555 Y95.93 E466.79289
G1 X189.069 Y121.444 E467.24538
G1 X189.069 Y118.556 E467.28159
G1 X163.555 Y144.07 E467.73408
G1 X158.9 Y144.069 E467.79245
G1 X140.929 Y126.098 E468.11116
G1 X140.929 Y128.985 E468.14737
G1 X172.141 Y97.774 E468.7009
G1 F5700 X173.985 Y95.93 E468.7336
G1 X178.639 Y95.93 E468.79196
G1 X186.939 Y104.23 E468.93916
G1 F5400 X189.069 Y106.36 E468.97694
G1 X189.069 Y103.472 E469.01315
G1 X180.514 Y112.027 E469.16487
G1 F5100 X168.494 Y124.047 E469.37805
G1 F4800 X157.181 Y135.36 E469.57868
G1 F4500 X148.471 Y144.07 E469.73315
G1 X145.79 Y144.069 E469.76677
G1 F4200 X143.816 Y144.069 E469.79152
G1 X140.929 Y141.182 E469.84272
G1 X140.929 Y144.069 E469.87893
G1 X144.504 Y140.494 E469.94233
G1 F3900 X153.696 Y131.302 E470.10535
G1 F3600 X162.181 Y122.817 E470.25583
G1 F3300 X169.959 Y115.039 E470.39377
G1 F3000 X177.03 Y107.968 E470.51917
G1 F2700 X183.394 Y101.605 E470.63203
G1 F2400 X189.05 Y95.949 E470.73233
M205 X30 Y30
G1 F2100 X189.069 Y95.93 E470.73267
G1 X189.069 Y98.818 E470.76889
G1 X186.181 Y95.93 E470.82011
M204 S1500
G1 F2700 E464.32011
G0 F9000 X189.56 Y144.56
G0 X189.83 Y144.83
M205 X50 Y50
;TYPE:WALL-OUTER
G1 F2700 E470.82011
G1 F1800 X189.83 Y95.17 E471.44286
G1 X140.17 Y95.17 E472.06562
G1 X140.17 Y144.83 E472.68837
G1 X189.83 Y144.83 E473.31112
M204 S3500
G0 F9000 X189.83 Y144.03
G0 X189.43 Y144.43
;TYPE:WALL-INNER
G1 F2100 X189.43 Y137.43 E473.39891
G1 F2400 X189.43 Y129.43 E473.49923
G1 F2700 X189.43 Y120.43 E473.61209
G1 F3000 X189.43 Y110.43 E473.7375
G1 F3300 X189.43 Y99.43 E473.87544
G1 F3600 X189.43 Y95.57 E473.92385
G1 X181.291 Y95.57 E474.02591
G1 F3900 X168.291 Y95.57 E474.18894
G1 F4200 X154.291 Y95.57 E474.3645
G1 F4500 X140.57 Y95.57 E474.53657
G1 X140.57 Y96.849 E474.55261
G1 F4800 X140.57 Y112.849 E474.75325
G1 F5100 X140.57 Y129.849 E474.96644
G1 F5400 X140.57 Y144.43 E475.14929
G1 X143.989 Y144.43 E475.19217
G1 F5700 X162.989 Y144.43 E475.43043
G1 F6000 X189.43 Y144.43 E475.76201
G0 F9000 X188.83 Y143.948
G1 F2700 E469.26201
;MESH:NONMESH
G0 F600 X188.83 Y143.948 Z2.4
G0 F9000 X189.07 Y95.93
;TIME_ELAPSED:584.676985
;LAYER:11
;TYPE:FILL
;MESH:????????????????.stl
G1 F2700 E475.76201
G1 F6000 X181.527 Y95.93 E475.85661
G1 X140.929 Y136.527 E476.57659
G1 X140.929 Y133.64 E476.6128
G1 X151.358 Y144.069 E476.79775
G1 X156.013 Y144.07 E476.85613
G1 X189.069 Y111.014 E477.44237
G1 X189.069 Y113.902 E477.47859
G1 X171.097 Y95.93 E477.79732
G1 X166.443 Y95.93 E477.85568
G1 X140.929 Y121.443 E478.30815
G1 X140.929 Y118.556 E478.34436
G1 X166.442 Y144.069 E478.79683
G1 X171.097 Y144.07 E478.8552
G1 X189.069 Y126.098 E479.17393
G1 X189.069 Y128.986 E479.21015
G1 X156.013 Y95.93 E479.79639
G1 X151.359 Y95.93 E479.85475
G1 X140.929 Y106.359 E480.03971
G1 X140.929 Y103.472 E480.07592
G1 X181.526 Y144.069 E480.7959
G1 X186.181 Y144.07 E480.85427
G1 X189.069 Y141.182 E480.90549
G1 X189.07 Y144.07 E480.94171
G1 X140.929 Y95.93 E481.79547
G1 X140.929 Y98.817 E481.83167
G1 X143.817 Y95.93 E481.88288
G1 X148.471 Y95.93 E481.94124
G1 X189.069 Y136.528 E482.66124
G1 X189.069 Y133.64 E482.69746
G1 X178.639 Y144.07 E482.88243
G1 X173.984 Y144.069 E482.9408
G1 X140.929 Y111.014 E483.52703
G1 X140.929 Y113.901 E483.56323
G1 X158.901 Y95.93 E483.88195
G1 X163.555 Y95.93 E483.94031
G1 X189.069 Y121.444 E484.3928
G1 X189.069 Y118.556 E484.42902
G1 X163.555 Y144.07 E484.8815
G1 X158.9 Y144.069 E484.93988
G1 X140.929 Y126.098 E485.25859
G1 X140.929 Y128.985 E485.29479
G1 X172.141 Y97.774 E485.84832
G1 F5700 X173.985 Y95.93 E485.88102
G1 X178.639 Y95.93 E485.93939
G1 X186.939 Y104.23 E486.08658
G1 F5400 X189.069 Y106.36 E486.12436
G1 X189.069 Y103.472 E486.16058
G1 X180.514 Y112.027 E486.3123
G1 F5100 X168.494 Y124.047 E486.52547
G1 F4800 X157.181 Y135.36 E486.7261
G1 F4500 X148.471 Y144.07 E486.88057
G1 X145.79 Y144.069 E486.91419
G1 F4200 X143.816 Y144.069 E486.93895
G1 X140.929 Y141.182 E486.99015
G1 X140.929 Y144.069 E487.02635
G1 X144.504 Y140.494 E487.08975
G1 F3900 X153.696 Y131.302 E487.25277
G1 F3600 X162.181 Y122.817 E487.40325
G1 F3300 X169.959 Y115.039 E487.54119
G1 F3000 X177.03 Y107.968 E487.66659
G1 F2700 X183.394 Y101.605 E487.77945
G1 F2400 X189.05 Y95.949 E487.87976
M205 X30 Y30
G1 F2100 X189.069 Y95.93 E487.88009
G1 X189.069 Y98.818 E487.91631
G1 X186.181 Y95.93 E487.96753
M204 S1500
G1 F2700 E481.46753
G0 F9000 X189.56 Y144.56
G0 X189.83 Y144.83
M205 X50 Y50
;TYPE:WALL-OUTER
G1 F2700 E487.96753
G1 F1800 X189.83 Y95.17 E488.59028
G1 X140.17 Y95.17 E489.21304
G1 X140.17 Y144.83 E489.83579
G1 X189.83 Y144.83 E490.45855
M204 S3500
G0 F9000 X189.83 Y144.03
G0 X189.43 Y144.43
;TYPE:WALL-INNER
G1 F2100 X189.43 Y137.43 E490.54633
G1 F2400 X189.43 Y129.43 E490.64665
G1 F2700 X189.43 Y120.43 E490.75952
G1 F3000 X189.43 Y110.43 E490.88492
G1 F3300 X189.43 Y99.43 E491.02286
G1 F3600 X189.43 Y95.57 E491.07127
G1 X181.291 Y95.57 E491.17334
G1 F3900 X168.291 Y95.57 E491.33636
G1 F4200 X154.291 Y95.57 E491.51193
G1 F4500 X140.57 Y95.57 E491.68399
G1 X140.57 Y96.849 E491.70003
G1 F4800 X140.57 Y112.849 E491.90068
G1 F5100 X140.57 Y129.849 E492.11386
G1 F5400 X140.57 Y144.43 E492.29672
G1 X143.989 Y144.43 E492.33959
G1 F5700 X162.989 Y144.43 E492.57786
G1 F6000 X189.43 Y144.43 E492.90944
G0 F9000 X188.83 Y143.948
G1 F2700 E486.40944
;MESH:NONMESH
G0 F600 X188.83 Y143.948 Z2.6
G0 F9000 X189.07 Y95.93
;TIME_ELAPSED:606.841992
;LAYER:12
;TYPE:FILL
;MESH:????????????????.stl
G1 F2700 E492.90944
G1 F6000 X181.527 Y95.93 E493.00403
G1 X140.929 Y136.527 E493.72402
G1 X140.929 Y133.64 E493.76022
G1 X151.358 Y144.069 E493.94518
G1 X156.013 Y144.07 E494.00355
G1 X189.069 Y111.014 E494.58979
G1 X189.069 Y113.902 E494.62601
G1 X171.097 Y95.93 E494.94474
G1 X166.443 Y95.93 E495.0031
G1 X140.929 Y121.443 E495.45558
G1 X140.929 Y118.556 E495.49178
G1 X166.442 Y144.069 E495.94425
G1 X171.097 Y144.07 E496.00262
G1 X189.069 Y126.098 E496.32135
G1 X189.069 Y128.986 E496.35757
G1 X156.013 Y95.93 E496.94381
G1 X151.359 Y95.93 E497.00217
G1 X140.929 Y106.359 E497.18714
G1 X140.929 Y103.472 E497.22334
G1 X181.526 Y144.069 E497.94332
G1 X186.181 Y144.07 E498.00169
G1 X189.069 Y141.182 E498.05291
G1 X189.07 Y144.07 E498.08913
G1 X140.929 Y95.93 E498.94289
G1 X140.929 Y98.817 E498.97909
G1 X143.817 Y95.93 E499.0303
G1 X148.471 Y95.93 E499.08867
G1 X189.069 Y136.528 E499.80866
G1 X189.069 Y133.64 E499.84488
G1 X178.639 Y144.07 E500.02985
G1 X173.984 Y144.069 E500.08823
G1 X140.929 Y111.014 E500.67445
G1 X140.929 Y113.901 E500.71065
G1 X158.901 Y95.93 E501.02937
G1 X163.555 Y95.93 E501.08774
G1 X189.069 Y121.444 E501.54022
G1 X189.069 Y118.556 E501.57644
G1 X163.555 Y144.07 E502.02892
G1 X158.9 Y144.069 E502.0873
G1 X140.929 Y126.098 E502.40601
G1 X140.929 Y128.985 E502.44221
G1 X172.141 Y97.774 E502.99574
G1 F5700 X173.985 Y95.93 E503.02845
G1 X178.639 Y95.93 E503.08681
G1 X186.939 Y104.23 E503.23401
G1 F5400 X189.069 Y106.36 E503.27178
G1 X189.069 Y103.472 E503.308
G1 X180.514 Y112.027 E503.45972
G1 F5100 X168.494 Y124.047 E503.67289
G1 F4800 X157.181 Y135.36 E503.87352
G1 F4500 X148.471 Y144.07 E504.02799
G1 X145.79 Y144.069 E504.06162
G1 F4200 X143.816 Y144.069 E504.08637
G1 X140.929 Y141.182 E504.13757
G1 X140.929 Y144.069 E504.17377
G1 X144.504 Y140.494 E504.23718
G1 F3900 X153.696 Y131.302 E504.40019
G1 F3600 X162.181 Y122.817 E504.55067
G1 F3300 X169.959 Y115.039 E504.68861
G1 F3000 X177.03 Y107.968 E504.81402
G1 F2700 X183.394 Y101.605 E504.92687
G1 F2400 X189.05 Y95.949 E505.02718
M205 X30 Y30
G1 F2100 X189.069 Y95.93 E505.02752
G1 X189.069 Y98.818 E505.06373
G1 X186.181 Y95.93 E505.11495
M204 S1500
G1 F2700 E498.61495
G0 F9000 X189.56 Y144.56
G0 X189.83 Y144.83
M205 X50 Y50
;TYPE:WALL-OUTER
G1 F2700 E505.11495
G1 F1800 X189.83 Y95.17 E505.73771
G1 X140.17 Y95.17 E506.36046
G1 X140.17 Y144.83 E506.98322
G1 X189.83 Y144.83 E507.60597
M204 S3500
G0 F9000 X189.83 Y144.03
G0 X189.43 Y144.43
;TYPE:WALL-INNER
G1 F2100 X189.43 Y137.43 E507.69375
G1 F2400 X189.43 Y129.43 E507.79408
G1 F2700 X189.43 Y120.43 E507.90694
G1 F3000 X189.43 Y110.43 E508.03234
G1 F3300 X189.43 Y99.43 E508.17029
G1 F3600 X189.43 Y95.57 E508.21869
G1 X181.291 Y95.57 E508.32076
G1 F3900 X168.291 Y95.57 E508.48378
G1 F4200 X154.291 Y95.57 E508.65935
G1 F4500 X140.57 Y95.57 E508.83142
G1 X140.57 Y96.849 E508.84745
G1 F4800 X140.57 Y112.849 E509.0481
G1 F5100 X140.57 Y129.849 E509.26129
G1 F5400 X140.57 Y144.43 E509.44414
G1 X143.989 Y144.43 E509.48701
G1 F5700 X162.989 Y144.43 E509.72528
G1 F6000 X189.43 Y144.43 E510.05686
G0 F9000 X188.83 Y143.948
G1 F2700 E503.55686
;MESH:NONMESH
G0 F600 X188.83 Y143.948 Z2.8
G0 F9000 X189.07 Y95.93
;TIME_ELAPSED:629.006999
;LAYER:13
;TYPE:FILL
;MESH:????????????????.stl
G1 F2700 E510.05686
G1 F6000 X181.527 Y95.93 E510.15145
G1 X140.929 Y136.527 E510.87144
G1 X140.929 Y133.64 E510.90764
G1 X151.358 Y144.069 E511.0926
G1 X156.013 Y144.07 E511.15098
G1 X189.069 Y111.014 E511.73722
G1 X189.069 Y113.902 E511.77343
G1 X171.097 Y95.93 E512.09216
G1 X166.443 Y95.93 E512.15052
G1 X140.929 Y121.443 E512.603
G1 X140.929 Y118.556 E512.6392
G1 X166.442 Y144.069 E513.09167
G1 X171.097 Y144.07 E513.15005
G1 X189.069 Y126.098 E513.46878
G1 X189.069 Y128.986 E513.50499
G1 X156.013 Y95.93 E514.09123
G1 X151.359 Y95.93 E514.1496
G1 X140.929 Y106.359 E514.33456
G1 X140.929 Y103.472 E514.37076
G1 X181.526 Y144.069 E515.09074
G1 X186.181 Y144.07 E515.14912
G1 X189.069 Y141.182 E515.20034
G1 X189.07 Y144.07 E515.23655
G1 X140.929 Y95.93 E516.09031
G1 X140.929 Y98.817 E516.12652
G1 X143.817 Y95.93 E516.17773
G1 X148.471 Y95.93 E516.23609
G1 X189.069 Y136.528 E516.95608
G1 X189.069 Y133.64 E516.9923
G1 X178.639 Y144.07 E517.17727
G1 X173.984 Y144.069 E517.23565
G1 X140.929 Y111.014 E517.82187
G1 X140.929 Y113.901 E517.85808
G1 X158.901 Y95.93 E518.1768
G1 X163.555 Y95.93 E518.23516
G1 X189.069 Y121.444 E518.68764
G1 X189.069 Y118.556 E518.72386
G1 X163.555 Y144.07 E519.17635
G1 X158.9 Y144.069 E519.23472
G1 X140.929 Y126.098 E519.55343
G1 X140.929 Y128.985 E519.58964
G1 X172.141 Y97.774 E520.14317
G1 F5700 X173.985 Y95.93 E520.17587
G1 X178.639 Y95.93 E520.23423
G1 X186.939 Y104.23 E520.38143
G1 F5400 X189.069 Y106.36 E520.4192
G1 X189.069 Y103.472 E520.45542
G1 X180.514 Y112.027 E520.60714
G1 F5100 X168.494 Y124.047 E520.82031
G1 F4800 X157.181 Y135.36 E521.02095
G1 F4500 X148.471 Y144.07 E521.17542
G1 X145.79 Y144.069 E521.20904
G1 F4200 X143.816 Y144.069 E521.23379
G1 X140.929 Y141.182 E521.28499
G1 X140.929 Y144.069 E521.3212
G1 X144.504 Y140.494 E521.3846
G1 F3900 X153.696 Y131.302 E521.54762
G1 F3600 X162.181 Y122.817 E521.6981
G1 F3300 X169.959 Y115.039 E521.83604
G1 F3000 X177.03 Y107.968 E521.96144
G1 F2700 X183.394 Y101.605 E522.0743
G1 F2400 X189.05 Y95.949 E522.1746
M205 X30 Y30
G1 F2100 X189.069 Y95.93 E522.17494
G1 X189.069 Y98.818 E522.21116
G1 X186.181 Y95.93 E522.26237
M204 S1500
G1 F2700 E515.76237
G0 F9000 X189.56 Y144.56
G0 X189.83 Y144.83
M205 X50 Y50
;TYPE:WALL-OUTER
G1 F2700 E522.26237
G1 F1800 X189.83 Y95.17 E522.88513
G1 X140.17 Y95.17 E523.50788
G1 X140.17 Y144.83 E524.13064
G1 X189.83 Y144.83 E524.75339
M204 S3500
G0 F9000 X189.83 Y144.03
G0 X189.43 Y144.43
;TYPE:WALL-INNER
G1 F2100 X189.43 Y137.43 E524.84118
G1 F2400 X189.43 Y129.43 E524.9415
G1 F2700 X189.43 Y120.43 E525.05436
G1 F3000 X189.43 Y110.43 E525.17977
G1 F3300 X189.43 Y99.43 E525.31771
G1 F3600 X189.43 Y95.57 E525.36612
G1 X181.291 Y95.57 E525.46818
G1 F3900 X168.291 Y95.57 E525.63121
G1 F4200 X154.291 Y95.57 E525.80677
G1 F4500 X140.57 Y95.57 E525.97884
G1 X140.57 Y96.849 E525.99488
G1 F4800 X140.57 Y112.849 E526.19552
G1 F5100 X140.57 Y129.849 E526.40871
G1 F5400 X140.57 Y144.43 E526.59156
G1 X143.989 Y144.43 E526.63444
G1 F5700 X162.989 Y144.43 E526.8727
G1 F6000 X189.43 Y144.43 E527.20428
G0 F9000 X188.83 Y143.948
G1 F2700 E520.70428
;MESH:NONMESH
G0 F600 X188.83 Y143.948 Z3
G0 F9000 X189.07 Y95.93
;TIME_ELAPSED:651.172007
;LAYER:14
;TYPE:FILL
;MESH:????????????????.stl
G1 F2700 E527.20428
G1 F6000 X181.527 Y95.93 E527.29888
G1 X140.929 Y136.527 E528.01886
G1 X140.929 Y133.64 E528.05507
G1 X151.358 Y144.069 E528.24002
G1 X156.013 Y144.07 E528.2984
G1 X189.069 Y111.014 E528.88464
G1 X189.069 Y113.902 E528.92086
G1 X171.097 Y95.93 E529.23958
G1 X166.443 Y95.93 E529.29795
G1 X140.929 Y121.443 E529.75042
G1 X140.929 Y118.556 E529.78663
G1 X166.442 Y144.069 E530.23909
G1 X171.097 Y144.07 E530.29747
G1 X189.069 Y126.098 E530.6162
G1 X189.069 Y128.986 E530.65242
G1 X156.013 Y95.93 E531.23866
G1 X151.359 Y95.93 E531.29702
G1 X140.929 Y106.359 E531.48198
G1 X140.929 Y103.472 E531.51819
G1 X181.526 Y144.069 E532.23817
G1 X186.181 Y144.07 E532.29654
G1 X189.069 Y141.182 E532.34776
G1 X189.07 Y144.07 E532.38398
G1 X140.929 Y95.93 E533.23774
G1 X140.929 Y98.817 E533.27394
G1 X143.817 Y95.93 E533.32515
G1 X148.471 Y95.93 E533.38351
G1 X189.069 Y136.528 E534.10351
G1 X189.069 Y133.64 E534.13972
G1 X178.639 Y144.07 E534.3247
G1 X173.984 Y144.069 E534.38307
G1 X140.929 Y111.014 E534.9693
G1 X140.929 Y113.901 E535.0055
G1 X158.901 Y95.93 E535.32422
G1 X163.555 Y95.93 E535.38258
G1 X189.069 Y121.444 E535.83507
G1 X189.069 Y118.556 E535.87128
G1 X163.555 Y144.07 E536.32377
G1 X158.9 Y144.069 E536.38214
G1 X140.929 Y126.098 E536.70086
G1 X140.929 Y128.985 E536.73706
G1 X172.141 Y97.774 E537.29059
G1 F5700 X173.985 Y95.93 E537.32329
G1 X178.639 Y95.93 E537.38165
G1 X186.939 Y104.23 E537.52885
G1 F5400 X189.069 Y106.36 E537.56663
G1 X189.069 Y103.472 E537.60284
G1 X180.514 Y112.027 E537.75457
G1 F5100 X168.494 Y124.047 E537.96774
G1 F4800 X157.181 Y135.36 E538.16837
G1 F4500 X148.471 Y144.07 E538.32284
G1 X145.79 Y144.069 E538.35646
G1 F4200 X143.816 Y144.069 E538.38122
G1 X140.929 Y141.182 E538.43242
G1 X140.929 Y144.069 E538.46862
G1 X144.504 Y140.494 E538.53202
G1 F3900 X153.696 Y131.302 E538.69504
G1 F3600 X162.181 Y122.817 E538.84552
G1 F3300 X169.959 Y115.039 E538.98346
G1 F3000 X177.03 Y107.968 E539.10886
G1 F2700 X183.394 Y101.605 E539.22172
G1 F2400 X189.05 Y95.949 E539.32203
M205 X30 Y30
G1 F2100 X189.069 Y95.93 E539.32236
G1 X189.069 Y98.818 E539.35858
G1 X186.181 Y95.93 E539.4098
M204 S1500
G1 F2700 E532.9098
G0 F9000 X189.56 Y144.56
G0 X189.83 Y144.83
M205 X50 Y50
;TYPE:WALL-OUTER
G1 F2700 E539.4098
G1 F1800 X189.83 Y95.17 E540.03255
G1 X140.17 Y95.17 E540.65531
G1 X140.17 Y144.83 E541.27806
G1 X189.83 Y144.83 E541.90082
M204 S3500
G0 F9000 X189.83 Y144.03
G0 X189.43 Y144.43
;TYPE:WALL-INNER
G1 F2100 X189.43 Y137.43 E541.9886
G1 F2400 X189.43 Y129.43 E542.08892
G1 F2700 X189.43 Y120.43 E542.20179
G1 F3000 X189.43 Y110.43 E542.32719
G1 F3300 X189.43 Y99.43 E542.46513
G1 F3600 X189.43 Y95.57 E542.51354
G1 X181.291 Y95.57 E542.61561
G1 F3900 X168.291 Y95.57 E542.77863
G1 F4200 X154.291 Y95.57 E542.9542
G1 F4500 X140.57 Y95.57 E543.12626
G1 X140.57 Y96.849 E543.1423
G1 F4800 X140.57 Y112.849 E543.34295
G1 F5100 X140.57 Y129.849 E543.55613
G1 F5400 X140.57 Y144.43 E543.73898
G1 X143.989 Y144.43 E543.78186
G1 F5700 X162.989 Y144.43 E544.02013
G1 F6000 X189.43 Y144.43 E544.35171
G0 F9000 X188.83 Y143.948
G1 F2700 E537.85171
;MESH:NONMESH
G0 F600 X188.83 Y143.948 Z3.2
G0 F9000 X189.07 Y95.93
;TIME_ELAPSED:673.337014
;LAYER:15
;TYPE:FILL
;MESH:????????????????.stl
G1 F2700 E544.35171
G1 F6000 X181.527 Y95.93 E544.4463
G1 X140.929 Y136.527 E545.16629
G1 X140.929 Y133.64 E545.20249
G1 X151.358 Y144.069 E545.38745
G1 X156.013 Y144.07 E545.44582
G1 X189.069 Y111.014 E546.03206
G1 X189.069 Y113.902 E546.06828
G1 X171.097 Y95.93 E546.38701
G1 X166.443 Y95.93 E546.44537
G1 X140.929 Y121.443 E546.89785
G1 X140.929 Y118.556 E546.93405
G1 X166.442 Y144.069 E547.38652
G1 X171.097 Y144.07 E547.44489
G1 X189.069 Y126.098 E547.76362
G1 X189.069 Y128.986 E547.79984
G1 X156.013 Y95.93 E548.38608
G1 X151.359 Y95.93 E548.44444
G1 X140.929 Y106.359 E548.62941
G1 X140.929 Y103.472 E548.66561
G1 X181.526 Y144.069 E549.38559
G1 X186.181 Y144.07 E549.44396
G1 X189.069 Y141.182 E549.49518
G1 X189.07 Y144.07 E549.5314
G1 X140.929 Y95.93 E550.38516
G1 X140.929 Y98.817 E550.42136
G1 X143.817 Y95.93 E550.47257
G1 X148.471 Y95.93 E550.53093
G1 X189.069 Y136.528 E551.25093
G1 X189.069 Y133.64 E551.28715
G1 X178.639 Y144.07 E551.47212
G1 X173.984 Y144.069 E551.5305
G1 X140.929 Y111.014 E552.11672
G1 X140.929 Y113.901 E552.15292
G1 X158.901 Y95.93 E552.47164
G1 X163.555 Y95.93 E552.53001
G1 X189.069 Y121.444 E552.98249
G1 X189.069 Y118.556 E553.01871
G1 X163.555 Y144.07 E553.47119
G1 X158.9 Y144.069 E553.52957
G1 X140.929 Y126.098 E553.84828
G1 X140.929 Y128.985 E553.88448
G1 X172.141 Y97.774 E554.43801
G1 F5700 X173.985 Y95.93 E554.47071
G1 X178.639 Y95.93 E554.52908
G1 X186.939 Y104.23 E554.67628
G1 F5400 X189.069 Y106.36 E554.71405
G1 X189.069 Y103.472 E554.75027
G1 X180.514 Y112.027 E554.90199
G1 F5100 X168.494 Y124.047 E555.11516
G1 F4800 X157.181 Y135.36 E555.31579
G1 F4500 X148.471 Y144.07 E555.47026
G1 X145.79 Y144.069 E555.50388
G1 F4200 X143.816 Y144.069 E555.52864
G1 X140.929 Y141.182 E555.57984
G1 X140.929 Y144.069 E555.61604
G1 X144.504 Y140.494 E555.67945
G1 F3900 X153.696 Y131.302 E555.84246
G1 F3600 X162.181 Y122.817 E555.99294
G1 F3300 X169.959 Y115.039 E556.13088
G1 F3000 X177.03 Y107.968 E556.25629
G1 F2700 X183.394 Y101.605 E556.36914
G1 F2400 X189.05 Y95.949 E556.46945
M205 X30 Y30
G1 F2100 X189.069 Y95.93 E556.46979
G1 X189.069 Y98.818 E556.506
G1 X186.181 Y95.93 E556.55722
M204 S1500
G1 F2700 E550.05722
G0 F9000 X189.56 Y144.56
G0 X189.83 Y144.83
M205 X50 Y50
;TYPE:WALL-OUTER
G1 F2700 E556.55722
G1 F1800 X189.83 Y95.17 E557.17998
G1 X140.17 Y95.17 E557.80273
G1 X140.17 Y144.83 E558.42548
G1 X189.83 Y144.83 E559.04824
M204 S3500
G0 F9000 X189.83 Y144.03
G0 X189.43 Y144.43
;TYPE:WALL-INNER
G1 F2100 X189.43 Y137.43 E559.13602
G1 F2400 X189.43 Y129.43 E559.23635
G1 F2700 X189.43 Y120.43 E559.34921
